;FLAVOR:Marlin
;TIME:801
;Filament used: 0.507704m
;Layer height: 0.2
;Generated with Cura_SteamEngine 3.1.0-atom-4
M104 S200
M109 S200
M82 ; absolute extrusion mode
G21 ;metric values
G90 ;absolute positioning
M82 ;set extruder to absolute mode
M107 ;start with the fan off
G28 ;move XYZ to min endstops
G1 Z15.0 F9000 ;move the platform down 15mm
G92 E0 ;zero the extruded length
G1 F9000
;Put printing message on LCD screen
M117 Printing...
;LAYER_COUNT:150
;LAYER:0
M107
G0 F3000 X-8.838 Y-.539 Z0.3
;TYPE:SKIRT
G1 F1500 X-9.274 Y-1.03 E0.03276
G1 X-9.648 Y-1.57 E0.06553
G1 X-9.954 Y-2.152 E0.09834
G1 X-10.186 Y-2.766 E0.13108
G1 X-10.293 Y-3.162 E0.15155
G1 X-10.377 Y-3.529 E0.17033
G1 X-10.484 Y-4.177 E0.2031
G1 X-10.512 Y-4.834 E0.2359
G1 X-10.46 Y-5.489 E0.26869
G1 X-10.329 Y-6.132 E0.30142
G1 X-10.12 Y-6.755 E0.33421
G1 X-9.956 Y-7.123 E0.35431
G1 X-9.846 Y-7.346 E0.36671
G1 X-9.52 Y-7.916 E0.39947
G1 X-9.127 Y-8.443 E0.43227
G1 X-8.673 Y-8.918 E0.46505
G1 X-8.165 Y-9.334 E0.49781
G1 X-7.589 Y-9.698 E0.5318
G1 X-7.325 Y-9.842 E0.54681
G1 X-6.73 Y-10.121 E0.57959
G1 X-6.106 Y-10.325 E0.61235
G1 X-5.461 Y-10.452 E0.64514
G1 X-4.725 Y-10.501 E0.68194
G1 X4.846 Y-10.476 E1.15944
G1 X5.502 Y-10.434 E1.19224
G1 X6.147 Y-10.313 E1.22498
G1 X6.774 Y-10.115 E1.25778
G1 X7.371 Y-9.842 E1.29054
G1 X7.931 Y-9.498 E1.32332
G1 X8.529 Y-9.012 E1.36177
G1 X8.76 Y-8.795 E1.37758
G1 X9.211 Y-8.317 E1.41037
G1 X9.6 Y-7.787 E1.44317
G1 X9.922 Y-7.215 E1.47592
G1 X10.172 Y-6.607 E1.50871
G1 X10.347 Y-5.974 E1.54148
G1 X10.45 Y-5.24 E1.57846
G1 X10.515 Y-4.32 E1.62447
G1 X10.528 Y-3.909 E1.64498
G1 X10.48 Y4.857 E2.08233
G1 X10.436 Y5.512 E2.11508
G1 X10.314 Y6.157 E2.14783
G1 X10.113 Y6.783 E2.18063
G1 X9.838 Y7.38 E2.21342
G1 X9.354 Y8.128 E2.25787
G1 X9.198 Y8.33 E2.27061
G1 X8.765 Y8.824 E2.30338
G1 X8.276 Y9.263 E2.33616
G1 X7.737 Y9.638 E2.36892
G1 X7.157 Y9.946 E2.40169
G1 X6.543 Y10.181 E2.43449
G1 X5.653 Y10.38 E2.47998
G1 X5.205 Y10.441 E2.50254
G1 X4.549 Y10.49 E2.53536
G1 X3.893 Y10.458 E2.56813
G1 X3.246 Y10.348 E2.60087
G1 X2.616 Y10.16 E2.63367
G1 X2.014 Y9.896 E2.66647
G1 X1.449 Y9.562 E2.69921
G1 X0.928 Y9.161 E2.73201
G1 X0.667 Y8.918 E2.7498
G1 X-8.838 Y-.539 E3.41874
G0 F3000 X-8.556 Y-.823
G1 F1500 X-8.975 Y-1.296 E3.45027
G1 X-9.331 Y-1.818 E3.48179
G1 X-9.618 Y-2.381 E3.51332
G1 X-9.903 Y-3.251 E3.55899
G1 X-9.987 Y-3.618 E3.57777
G1 X-10.089 Y-4.242 E3.60932
G1 X-10.111 Y-4.874 E3.64087
G1 X-10.053 Y-5.504 E3.67243
G1 X-9.917 Y-6.121 E3.70395
G1 X-9.597 Y-6.946 E3.7481
G1 X-9.487 Y-7.169 E3.7605
G1 X-9.172 Y-7.717 E3.79204
G1 X-8.791 Y-8.221 E3.82356
G1 X-8.349 Y-8.673 E3.8551
G1 X-7.853 Y-9.065 E3.88664
G1 X-7.397 Y-9.346 E3.91336
G1 X-7.133 Y-9.49 E3.92837
G1 X-6.56 Y-9.757 E3.9599
G1 X-5.958 Y-9.95 E3.99144
G1 X-5.337 Y-10.065 E4.02295
G1 X-4.726 Y-10.101 E4.05349
G1 X4.845 Y-10.076 E4.53099
G1 X5.476 Y-10.034 E4.56254
G1 X6.096 Y-9.914 E4.59405
G1 X6.697 Y-9.715 E4.62563
G1 X7.267 Y-9.443 E4.65714
G1 X7.799 Y-9.101 E4.68869
G1 X8.255 Y-8.72 E4.71834
G1 X8.486 Y-8.503 E4.73415
G1 X8.919 Y-8.042 E4.7657
G1 X9.29 Y-7.53 E4.79725
G1 X9.593 Y-6.976 E4.82875
G1 X9.824 Y-6.387 E4.86032
G1 X9.979 Y-5.774 E4.89186
G1 X10.051 Y-5.211 E4.92018
G1 X10.116 Y-4.291 E4.96619
G1 X10.128 Y-3.912 E4.98511
G1 X10.08 Y4.854 E5.42245
G1 X10.037 Y5.485 E5.45401
G1 X9.914 Y6.105 E5.48554
G1 X9.714 Y6.705 E5.5171
G1 X9.44 Y7.275 E5.54865
G1 X9.037 Y7.883 E5.58504
G1 X8.881 Y8.085 E5.59777
G1 X8.464 Y8.56 E5.62931
G1 X7.99 Y8.978 E5.66084
G1 X7.467 Y9.334 E5.6924
G1 X6.904 Y9.62 E5.72391
G1 X6.309 Y9.833 E5.75543
G1 X5.599 Y9.983 E5.79164
G1 X5.151 Y10.044 E5.8142
G1 X4.52 Y10.09 E5.84576
G1 X3.889 Y10.055 E5.87729
G1 X3.267 Y9.942 E5.90883
G1 X2.665 Y9.75 E5.94035
G1 X2.091 Y9.485 E5.97189
G1 X1.556 Y9.148 E6.00344
G1 X0.949 Y8.634 E6.04312
G1 X-8.556 Y-.823 E6.71206
G0 F3000 X-8.273 Y-1.106
G1 F1500 X-8.674 Y-1.561 E6.74232
G1 X-9.011 Y-2.065 E6.77257
G1 X-9.28 Y-2.609 E6.80284
G1 X-9.513 Y-3.341 E6.84117
G1 X-9.597 Y-3.708 E6.85995
G1 X-9.693 Y-4.306 E6.89017
G1 X-9.71 Y-4.912 E6.92041
G1 X-9.646 Y-5.515 E6.95067
G1 X-9.504 Y-6.105 E6.98094
G1 X-9.238 Y-6.769 E7.01663
G1 X-9.128 Y-6.992 E7.02903
G1 X-8.825 Y-7.517 E7.05927
G1 X-8.455 Y-7.997 E7.08951
G1 X-8.025 Y-8.425 E7.11978
G1 X-7.543 Y-8.792 E7.15
G1 X-7.206 Y-8.995 E7.16963
G1 X-6.942 Y-9.139 E7.18463
G1 X-6.391 Y-9.394 E7.21492
G1 X-5.813 Y-9.574 E7.24513
G1 X-5.215 Y-9.676 E7.27539
G1 X-4.727 Y-9.701 E7.29977
G1 X4.844 Y-9.676 E7.77727
G1 X5.449 Y-9.634 E7.80753
G1 X6.043 Y-9.514 E7.83776
G1 X6.616 Y-9.316 E7.86801
G1 X7.158 Y-9.044 E7.89826
G1 X7.66 Y-8.704 E7.92851
G1 X7.982 Y-8.429 E7.94964
G1 X8.213 Y-8.212 E7.96545
G1 X8.626 Y-7.768 E7.9957
G1 X8.978 Y-7.274 E8.02596
G1 X9.261 Y-6.739 E8.05616
G1 X9.472 Y-6.17 E8.08644
G1 X9.606 Y-5.579 E8.11667
G1 X9.652 Y-5.183 E8.13656
G1 X9.717 Y-4.263 E8.18257
G1 X9.728 Y-3.914 E8.19999
G1 X9.68 Y4.852 E8.63734
G1 X9.637 Y5.457 E8.6676
G1 X9.514 Y6.051 E8.69786
G1 X9.315 Y6.623 E8.72807
G1 X9.042 Y7.165 E8.75835
G1 X8.721 Y7.639 E8.78691
G1 X8.565 Y7.841 E8.79964
G1 X8.163 Y8.295 E8.8299
G1 X7.706 Y8.693 E8.86013
G1 X7.2 Y9.027 E8.89038
G1 X6.654 Y9.291 E8.92064
G1 X6.078 Y9.482 E8.95091
G1 X5.545 Y9.587 E8.97802
G1 X5.097 Y9.648 E9.00057
G1 X4.492 Y9.69 E9.03083
G1 X3.887 Y9.652 E9.06107
G1 X3.292 Y9.535 E9.09132
G1 X2.717 Y9.341 E9.1216
G1 X2.174 Y9.072 E9.15183
G1 X1.67 Y8.735 E9.18208
G1 X1.232 Y8.351 E9.21114
G1 X-8.273 Y-1.106 E9.88008
G0 F3000 X-7.991 Y-1.39
G1 F1500 X-8.373 Y-1.826 E9.909
G1 X-8.691 Y-2.31 E9.93789
G1 X-8.939 Y-2.833 E9.96677
G1 X-9.123 Y-3.43 E9.99794
G1 X-9.207 Y-3.797 E10.01672
G1 X-9.297 Y-4.369 E10.04561
G1 X-9.308 Y-4.948 E10.0745
G1 X-9.238 Y-5.524 E10.10345
G1 X-9.09 Y-6.084 E10.13235
G1 X-8.88 Y-6.592 E10.15977
G1 X-8.77 Y-6.815 E10.17217
G1 X-8.478 Y-7.316 E10.20111
G1 X-8.121 Y-7.771 E10.22996
G1 X-7.704 Y-8.174 E10.25889
G1 X-7.014 Y-8.644 E10.30054
G1 X-6.75 Y-8.788 E10.31555
G1 X-6.224 Y-9.03 E10.34443
G1 X-5.669 Y-9.197 E10.37335
G1 X-5.097 Y-9.286 E10.40223
G1 X-4.728 Y-9.301 E10.42065
G1 X4.843 Y-9.276 E10.89815
G1 X5.421 Y-9.235 E10.92706
G1 X5.987 Y-9.114 E10.95594
G1 X6.532 Y-8.917 E10.98485
G1 X7.044 Y-8.646 E11.01375
G1 X7.708 Y-8.137 E11.05549
G1 X7.939 Y-7.92 E11.0713
G1 X8.333 Y-7.495 E11.10022
G1 X8.664 Y-7.02 E11.1291
G1 X8.927 Y-6.504 E11.158
G1 X9.117 Y-5.957 E11.18688
G1 X9.253 Y-5.155 E11.22747
G1 X9.318 Y-4.235 E11.27348
G1 X9.328 Y-3.916 E11.2894
G1 X9.28 Y4.85 E11.72675
G1 X9.237 Y5.428 E11.75566
G1 X9.115 Y5.994 E11.78455
G1 X8.916 Y6.538 E11.81345
G1 X8.644 Y7.05 E11.84237
G1 X8.404 Y7.394 E11.8633
G1 X8.248 Y7.596 E11.87603
G1 X7.863 Y8.029 E11.90494
G1 X7.422 Y8.405 E11.93385
G1 X6.934 Y8.717 E11.96275
G1 X6.408 Y8.958 E11.99162
G1 X5.853 Y9.125 E12.02053
G1 X5.491 Y9.191 E12.03889
G1 X5.043 Y9.252 E12.06145
G1 X4.465 Y9.29 E12.09035
G1 X3.887 Y9.248 E12.11926
G1 X3.32 Y9.128 E12.14817
G1 X2.776 Y8.93 E12.17705
G1 X2.263 Y8.66 E12.20598
G1 X1.793 Y8.321 E12.23489
G1 X1.514 Y8.067 E12.25371
G1 X-7.991 Y-1.39 E12.92265
G1 F4800 E6.92265
G1 F300 Z0.8
G0 F3000 X4.123 Y2.912 Z0.8
;TYPE:WALL-INNER
G1 F300 Z0.3
G1 F4800 E12.92265
G1 F1500 X4.124 Y2.914 E12.92276
G1 X4.124 Y3.397 E12.94686
G1 X3.782 Y3.055 E12.95983
G1 X-1.124 Y-1.85 E13.30594
G1 X-1.976 Y-2.716 E13.36655
G1 X-3.053 Y-3.789 E13.4424
G1 X-3.396 Y-4.13 E13.46653
G1 X-2.913 Y-4.13 E13.47949
G1 X-2.912 Y-4.13 E13.47954
G1 X1.473 Y-4.13 E13.69831
G1 X2.342 Y-4.122 E13.74166
G1 X3.928 Y-4.129 E13.82079
G1 X4.128 Y-4.129 E13.83077
G1 X4.128 Y-3.929 E13.83723
G1 X4.128 Y1.476 E14.10689
G1 X4.12 Y2.345 E14.15024
G1 X4.123 Y2.912 E14.17853
G0 F3000 X4.426 Y3.882
G0 X4.527 Y3.882
G1 F1500 X4.528 Y3.884 E14.17864
G1 X4.528 Y4.367 E14.20274
G1 X4.186 Y4.026 E14.21569
G1 X4.185 Y4.025 E14.21576
G1 X-1.407 Y-1.567 E14.6103
G1 X-2.26 Y-2.434 E14.67098
G1 X-4.022 Y-4.189 E14.79505
G1 X-4.364 Y-4.53 E14.81915
G1 X-3.882 Y-4.53 E14.83208
G1 X-3.88 Y-4.53 E14.83218
G1 X1.477 Y-4.53 E15.09945
G1 X2.343 Y-4.522 E15.14265
G1 X4.328 Y-4.531 E15.24168
G1 X4.528 Y-4.531 E15.25166
G1 X4.528 Y-4.331 E15.25812
G1 X4.528 Y1.48 E15.54804
G1 X4.52 Y2.346 E15.59124
G1 X4.527 Y3.882 E15.66787
G0 F3000 X4.426 Y3.882
G0 X4.421 Y2.343
G0 X4.92 Y2.347
;TYPE:WALL-OUTER
G1 F1500 X4.929 Y4.619 E15.78123
G1 X4.929 Y4.629 E15.78173
G1 X4.896 Y4.776 E15.78924
G1 X4.813 Y4.869 E15.79546
G1 X4.809 Y4.874 E15.79578
G1 X4.688 Y4.925 E15.80233
G1 X4.678 Y4.924 E15.80283
G1 X4.552 Y4.911 E15.80915
G1 X4.426 Y4.831 E15.8166
G1 X4.422 Y4.827 E15.81688
G1 X-1.69 Y-1.284 E16.24808
G1 X-2.544 Y-2.152 E16.30883
G1 X-4.849 Y-4.45 E16.47121
G1 X-4.866 Y-4.466 E16.47238
G1 X-4.908 Y-4.545 E16.47684
G1 X-4.92 Y-4.568 E16.47814
G1 X-4.929 Y-4.63 E16.48126
G1 X-4.928 Y-4.686 E16.48406
G1 X-4.906 Y-4.75 E16.48743
G1 X-4.866 Y-4.822 E16.49154
G1 X-4.848 Y-4.837 E16.49271
G1 X-4.775 Y-4.896 E16.49739
G1 X-4.749 Y-4.902 E16.49872
G1 X-4.627 Y-4.93 E16.50497
G1 X1.481 Y-4.93 E16.8097
G1 X2.344 Y-4.922 E16.85276
G1 X4.626 Y-4.931 E16.96661
G1 X4.732 Y-4.912 E16.97198
G1 X4.842 Y-4.845 E16.9784
G1 X4.901 Y-4.76 E16.98357
G1 X4.928 Y-4.627 E16.99034
G1 X4.928 Y1.484 E17.29522
G1 X4.92 Y2.347 E17.33827
G0 F3000 X4.92 Y2.547
G0 X4.42 Y2.548
G0 X3.73 Y2.453
;TYPE:SKIN
G1 F1500 X-.758 Y-2.034 E17.65489
G1 X-1.699 Y-2.991 E17.72185
G1 X-2.451 Y-3.74 E17.7748
G1 X1.469 Y-3.74 E17.97037
G1 X2.34 Y-3.732 E18.01383
G1 X3.738 Y-3.737 E18.08357
G1 X3.738 Y1.472 E18.34345
G1 X3.73 Y2.453 E18.3924
G0 F3000 X3.233 Y-3.554
G1 F1500 X3.557 Y-3.23 E18.41526
G0 F3000 X3.557 Y-2.665
G1 F1500 X2.67 Y-3.551 E18.4778
G1 X2.6 Y-3.621
G0 F3000 X2.104 Y-3.552
G1 F1500 X3.557 Y-2.099 E18.58032
G1 X3.627 Y-2.029
G0 F3000 X3.557 Y-1.533
G1 F1500 X1.533 Y-3.558 E18.72316
G1 X1.463 Y-3.628
G0 F3000 X0.966 Y-3.558
G1 F1500 X3.557 Y-.968 E18.90593
G1 X3.627 Y-.898
G0 F3000 X3.557 Y-.402
G1 F1500 X0.4 Y-3.558 E19.12864
G1 X0.33 Y-3.628
G0 F3000 X-.164 Y-3.558
G1 F1500 X3.557 Y0.163 E19.39118
G1 X3.627 Y0.233
G0 F3000 X3.557 Y0.729
G1 F1500 X-.73 Y-3.558 E19.69365
G1 X-.8 Y-3.628
G0 F3000 X-1.296 Y-3.558
G1 F1500 X3.557 Y1.294 E20.03602
G1 X3.627 Y1.364
G0 F3000 X3.554 Y1.857
G1 F1500 X-1.861 Y-3.558 E20.41808
G1 X-1.931 Y-3.628
G0 F3000 X4.144 Y2.959
;TIME_ELAPSED:18.587912
;LAYER:1
M106 S255
G0 F4500 X4.144 Y2.959 Z0.5
;TYPE:WALL-INNER
G1 F2250 X4.144 Y2.961 E20.41814
G1 X4.144 Y3.441 E20.43411
G1 X3.804 Y3.101 E20.44271
G1 X-3.103 Y-3.806 E20.7676
G1 X-3.443 Y-4.146 E20.78359
G1 X-2.963 Y-4.146 E20.79218
G1 X-2.961 Y-4.146 E20.79225
G1 X4.144 Y-4.146 E21.02856
G1 X4.144 Y2.959 E21.26487
G0 F4500 X4.444 Y3.925
G0 X4.544 Y3.925
G1 F2250 X4.544 Y3.927 E21.26494
G1 X4.544 Y4.407 E21.2809
G1 X4.204 Y4.067 E21.28951
G1 X-4.069 Y-4.206 E21.67864
G1 X-4.409 Y-4.546 E21.69464
G1 X-3.929 Y-4.546 E21.70323
G1 X-3.927 Y-4.546 E21.70329
G1 X4.544 Y-4.546 E21.98504
G1 X4.544 Y3.925 E22.26679
G0 F4500 X4.444 Y3.925
G0 X4.506 Y4.315
G0 X4.938 Y4.682
;TYPE:WALL-OUTER
G1 F1500 X4.935 Y4.71 E22.26772
G1 X4.909 Y4.783 E22.2703
G1 X4.908 Y4.786 E22.27041
G1 X4.887 Y4.821 E22.27176
G1 X4.796 Y4.905 E22.27588
G1 X4.681 Y4.944 E22.27992
G1 X4.654 Y4.941 E22.28082
G1 X4.54 Y4.924 E22.28466
G1 X4.537 Y4.922 E22.28478
G1 X4.415 Y4.844 E22.28959
G1 X-4.847 Y-4.418 E22.72525
G1 X-4.883 Y-4.462 E22.72714
G1 X-4.899 Y-4.483 E22.72802
G1 X-4.933 Y-4.555 E22.73067
G1 X-4.935 Y-4.559 E22.73082
G1 X-4.944 Y-4.596 E22.73208
G1 X-4.94 Y-4.719 E22.73618
G1 X-4.884 Y-4.83 E22.74031
G1 X-4.863 Y-4.846 E22.74119
G1 X-4.771 Y-4.916 E22.74503
G1 X-4.767 Y-4.917 E22.74517
G1 X-4.63 Y-4.946 E22.74983
G1 X4.63 Y-4.946 E23.05782
G1 X4.745 Y-4.927 E23.06169
G1 X4.853 Y-4.855 E23.06601
G1 X4.918 Y-4.758 E23.0699
G1 X4.944 Y-4.627 E23.07434
G1 X4.944 Y4.634 E23.38236
G1 X4.938 Y4.682 E23.38397
G0 F4500 X4.935 Y4.71
G0 X4.909 Y4.783
G0 X4.908 Y4.786
G0 X4.887 Y4.821
G0 X4.849 Y4.856
G0 X4.506 Y4.315
G0 X3.754 Y2.501
;TYPE:SKIN
G1 F1500 X-2.503 Y-3.756 E23.67828
G1 X3.754 Y-3.756 E23.88639
G1 X3.754 Y2.501 E24.0945
G0 F4500 X3.297 Y1.793
G0 X3.435 Y1.655
G1 F1500 X3.294 Y1.23 E24.11415
G0 F4500 X3.573 Y0.386
G1 F1500 X2.732 Y1.227 E24.15371
G1 X2.662 Y1.297
G0 F4500 X2.449 Y0.944
G1 F1500 X3.573 Y-.179 E24.20656
G1 X3.643 Y-.249
G0 F4500 X3.573 Y-.745
G1 F1500 X2.166 Y0.661 E24.27272
G1 X2.096 Y0.731
G0 F4500 X1.883 Y0.379
G1 F1500 X3.573 Y-1.31 E24.35219
G1 X3.643 Y-1.38
G0 F4500 X3.573 Y-1.876
G1 F1500 X1.6 Y0.096 E24.44497
G1 X1.53 Y0.166
G0 F4500 X1.318 Y-.186
G1 F1500 X3.573 Y-2.442 E24.55106
G1 X3.643 Y-2.512
G0 F4500 X3.573 Y-3.008
G1 F1500 X1.035 Y-.469 E24.67046
G1 X0.965 Y-.399
G0 F4500 X0.752 Y-.752
G1 F1500 X3.573 Y-3.573 E24.80315
G1 X3.643 Y-3.643
G0 F4500 X3.009 Y-3.575
G1 F1500 X0.469 Y-1.035 E24.92263
G1 X0.399 Y-.965
G0 F4500 X0.186 Y-1.318
G1 F1500 X2.443 Y-3.575 E25.02879
G1 X2.513 Y-3.645
G0 F4500 X1.878 Y-3.575
G1 F1500 X-0.096 Y-1.6 E25.12166
G1 X-.166 Y-1.53
G0 F4500 X-.379 Y-1.883
G1 F1500 X1.312 Y-3.575 E25.20123
G1 X1.382 Y-3.645
G0 F4500 X0.746 Y-3.575
G1 F1500 X-.661 Y-2.166 E25.26745
G1 X-.731 Y-2.096
G0 F4500 X-.944 Y-2.449
G1 F1500 X0.181 Y-3.575 E25.32039
G1 X0.251 Y-3.645
G0 F4500 X-.384 Y-3.575
G1 F1500 X-1.227 Y-2.732 E25.36005
G1 X-1.297 Y-2.662
G0 F4500 X-1.23 Y-3.295
G1 F1500 X-1.654 Y-3.436 E25.37974
G0 F4500 X-1.793 Y-3.297
G0 X4.144 Y2.959
;TIME_ELAPSED:24.592740
;LAYER:2
G0 F6000 X4.144 Y2.959 Z0.7
;TYPE:WALL-INNER
G1 F3000 X4.144 Y2.961 E25.3798
G1 X4.144 Y3.441 E25.39577
G1 X3.804 Y3.101 E25.40437
G1 X-3.103 Y-3.806 E25.72926
G1 X-3.443 Y-4.146 E25.74525
G1 X-2.963 Y-4.146 E25.75384
G1 X-2.961 Y-4.146 E25.75391
G1 X4.144 Y-4.146 E25.99022
G1 X4.144 Y2.959 E26.22653
G0 F6000 X4.444 Y3.925
G0 X4.544 Y3.925
G1 F3000 X4.544 Y3.927 E26.2266
G1 X4.544 Y4.407 E26.24256
G1 X4.204 Y4.067 E26.25117
G1 X-4.069 Y-4.206 E26.6403
G1 X-4.409 Y-4.546 E26.6563
G1 X-3.929 Y-4.546 E26.66489
G1 X-3.927 Y-4.546 E26.66495
G1 X4.544 Y-4.546 E26.9467
G1 X4.544 Y3.925 E27.22845
G0 F6000 X4.444 Y3.925
G0 X4.506 Y4.315
G0 X4.938 Y4.682
;TYPE:WALL-OUTER
G1 F1500 X4.935 Y4.71 E27.22938
G1 X4.909 Y4.783 E27.23196
G1 X4.908 Y4.786 E27.23207
G1 X4.887 Y4.821 E27.23342
G1 X4.796 Y4.905 E27.23754
G1 X4.681 Y4.944 E27.24158
G1 X4.654 Y4.941 E27.24248
G1 X4.54 Y4.924 E27.24632
G1 X4.537 Y4.922 E27.24644
G1 X4.415 Y4.844 E27.25125
G1 X-4.847 Y-4.418 E27.68691
G1 X-4.883 Y-4.462 E27.6888
G1 X-4.899 Y-4.483 E27.68968
G1 X-4.933 Y-4.555 E27.69233
G1 X-4.935 Y-4.559 E27.69248
G1 X-4.944 Y-4.596 E27.69374
G1 X-4.94 Y-4.719 E27.69784
G1 X-4.884 Y-4.83 E27.70197
G1 X-4.863 Y-4.846 E27.70285
G1 X-4.771 Y-4.916 E27.70669
G1 X-4.767 Y-4.917 E27.70683
G1 X-4.63 Y-4.946 E27.71149
G1 X4.63 Y-4.946 E28.01948
G1 X4.745 Y-4.927 E28.02335
G1 X4.853 Y-4.855 E28.02767
G1 X4.918 Y-4.758 E28.03156
G1 X4.944 Y-4.627 E28.036
G1 X4.944 Y4.634 E28.34402
G1 X4.938 Y4.682 E28.34563
G0 F6000 X4.935 Y4.71
G0 X4.909 Y4.783
G0 X4.908 Y4.786
G0 X4.887 Y4.821
G0 X4.849 Y4.856
G0 X4.506 Y4.315
G0 X3.754 Y2.501
;TYPE:SKIN
G1 F1500 X-2.503 Y-3.756 E28.63994
G1 X3.754 Y-3.756 E28.84805
G1 X3.754 Y2.501 E29.05616
G0 F6000 X3.573 Y1.876
G1 F1500 X-1.878 Y-3.575 E29.31255
G1 X-1.948 Y-3.645
G0 F6000 X-1.312 Y-3.575
G1 F1500 X3.573 Y1.31 E29.54233
G1 X3.643 Y1.38
G0 F6000 X3.573 Y0.745
G1 F1500 X-.746 Y-3.575 E29.74551
G1 X-.816 Y-3.645
G0 F6000 X-.181 Y-3.575
G1 F1500 X3.573 Y0.179 E29.92208
G1 X3.643 Y0.249
G0 F6000 X3.573 Y-.386
G1 F1500 X0.384 Y-3.575 E30.07208
G1 X0.314 Y-3.645
G0 F6000 X0.95 Y-3.575
G1 F1500 X3.573 Y-.951 E30.19548
G1 X3.643 Y-.881
G0 F6000 X3.573 Y-1.517
G1 F1500 X1.516 Y-3.575 E30.29226
G1 X1.446 Y-3.645
G0 F6000 X2.081 Y-3.575
G1 F1500 X3.573 Y-2.083 E30.36244
G1 X3.643 Y-2.013
G0 F6000 X3.573 Y-2.648
G1 F1500 X2.647 Y-3.575 E30.40602
G1 X2.577 Y-3.645
G0 F6000 X3.213 Y-3.575
G1 F1500 X3.573 Y-3.214 E30.42298
G0 F6000 X4.144 Y2.959
;TIME_ELAPSED:30.149284
;LAYER:3
G0 X4.144 Y2.959 Z0.9
;TYPE:WALL-INNER
G1 F3000 X4.144 Y2.961 E30.42304
G1 X4.144 Y3.441 E30.43901
G1 X3.804 Y3.101 E30.44761
G1 X-3.103 Y-3.806 E30.7725
G1 X-3.443 Y-4.146 E30.78849
G1 X-2.963 Y-4.146 E30.79708
G1 X-2.961 Y-4.146 E30.79715
G1 X4.144 Y-4.146 E31.03346
