;FLAVOR:Marlin
;TIME:780
;Filament used: 0.964244m
;Layer height: 0.2
;Generated with Cura_SteamEngine 3.1.0-atom-4
M104 S200
M109 S200
M82 ; absolute extrusion mode
G21 ;metric values
G90 ;absolute positioning
M82 ;set extruder to absolute mode
M107 ;start with the fan off
G28 ;move XYZ to min endstops
G1 Z15.0 F9000 ;move the platform down 15mm
G92 E0 ;zero the extruded length
G1 F9000
;Put printing message on LCD screen
M117 Printing...
;LAYER_COUNT:40
;LAYER:0
M107
G0 F4500 X1.355 Y-24.436 Z0.3
;TYPE:SKIRT
G1 F2250 X6.708 Y-24.664 E0.2673
G1 X12.071 Y-25.197 E0.53618
G1 X17.429 Y-26.038 E0.80677
G1 X20 Y-26.554 E0.93759
G1 X22.596 Y-27.152 E1.0705
G1 X27.801 Y-28.586 E1.33985
G1 X32.933 Y-30.317 E1.61006
G1 X35.381 Y-31.26 E1.74094
G1 X38.364 Y-32.514 E1.90238
G1 X38.961 Y-32.721 E1.9339
G1 X39.579 Y-32.852 E1.96542
G1 X40.338 Y-32.904 E2.00338
G1 X43.189 Y-32.883 E2.14562
G1 X43.819 Y-32.838 E2.17713
G1 X44.439 Y-32.714 E2.20867
G1 X45.039 Y-32.513 E2.24024
G1 X45.608 Y-32.238 E2.27177
G1 X46.138 Y-31.894 E2.30329
G1 X46.543 Y-31.557 E2.32958
G1 X46.841 Y-31.282 E2.34981
G1 X47.277 Y-30.825 E2.38132
G1 X47.653 Y-30.317 E2.41285
G1 X47.961 Y-29.765 E2.44439
G1 X48.197 Y-29.178 E2.47595
G1 X48.357 Y-28.567 E2.50746
G1 X48.45 Y-27.66 E2.55295
G1 X48.49 Y-23.815 E2.74479
G1 X48.456 Y-23.184 E2.77632
G1 X48.344 Y-22.562 E2.80785
G1 X48.153 Y-21.959 E2.8394
G1 X47.888 Y-21.385 E2.87095
G1 X47.604 Y-20.922 E2.89804
G1 X11.924 Y30.748 E6.03076
G1 X11.533 Y31.245 E6.06231
G1 X11.082 Y31.688 E6.09384
G1 X10.579 Y32.07 E6.12536
G1 X10.032 Y32.386 E6.15687
G1 X9.449 Y32.631 E6.18842
G1 X8.839 Y32.8 E6.22
G1 X8.214 Y32.891 E6.25151
G1 X7.529 Y32.899 E6.28569
G1 X3.649 Y32.681 E6.47957
G1 X-1.77 Y32.628 E6.74994
G1 X-7.575 Y32.901 E7.03987
G1 X-8.207 Y32.891 E7.0714
G1 X-8.833 Y32.801 E7.10296
G1 X-9.442 Y32.633 E7.13447
G1 X-10.026 Y32.389 E7.16605
G1 X-10.574 Y32.074 E7.19759
G1 X-11.077 Y31.692 E7.2291
G1 X-11.529 Y31.249 E7.26067
G1 X-11.924 Y30.749 E7.29246
G1 X-47.595 Y-20.892 E10.42373
G1 X-47.921 Y-21.434 E10.45528
G1 X-48.175 Y-22.013 E10.48683
G1 X-48.355 Y-22.619 E10.51837
G1 X-48.457 Y-23.243 E10.54991
G1 X-48.481 Y-23.768 E10.57613
G1 X-48.455 Y-27.62 E10.76831
G1 X-48.411 Y-28.25 E10.79982
G1 X-48.287 Y-28.87 E10.83136
G1 X-48.087 Y-29.47 E10.86292
G1 X-47.812 Y-30.039 E10.89445
G1 X-47.588 Y-30.4 E10.91564
G1 X-47.46 Y-30.588 E10.92699
G1 X-47.072 Y-31.087 E10.95852
G1 X-46.624 Y-31.533 E10.99006
G1 X-46.123 Y-31.919 E11.02162
G1 X-45.578 Y-32.239 E11.05315
G1 X-45.213 Y-32.405 E11.07315
G1 X-44.884 Y-32.539 E11.09087
G1 X-44.285 Y-32.74 E11.1224
G1 X-43.665 Y-32.863 E11.15393
G1 X-42.987 Y-32.908 E11.18783
G1 X-40.282 Y-32.902 E11.32278
G1 X-39.651 Y-32.861 E11.35433
G1 X-39.031 Y-32.74 E11.38585
G1 X-38.42 Y-32.538 E11.41795
G1 X-32.808 Y-30.271 E11.71992
G1 X-30.379 Y-29.414 E11.84842
G1 X-25.215 Y-27.835 E12.11783
G1 X-19.956 Y-26.546 E12.38797
G1 X-17.336 Y-26.019 E12.5213
G1 X-14.752 Y-25.579 E12.65207
G1 X-9.379 Y-24.892 E12.92231
G1 X-4 Y-24.512 E13.19134
G1 X1.355 Y-24.436 E13.45853
G0 F4500 X1.366 Y-24.037
G1 F2250 X6.763 Y-24.267 E13.72803
G1 X12.121 Y-24.799 E13.99666
G1 X17.477 Y-25.64 E14.26714
G1 X20.063 Y-26.159 E14.39873
G1 X22.695 Y-26.765 E14.53348
G1 X27.93 Y-28.207 E14.80438
G1 X33.084 Y-29.946 E15.07576
G1 X35.514 Y-30.882 E15.20567
G1 X38.519 Y-32.145 E15.3683
G1 X39.092 Y-32.342 E15.39853
G1 X39.686 Y-32.463 E15.42877
G1 X40.335 Y-32.504 E15.46121
G1 X43.186 Y-32.483 E15.60345
G1 X43.791 Y-32.438 E15.63372
G1 X44.384 Y-32.315 E15.66394
G1 X44.956 Y-32.114 E15.69418
G1 X45.497 Y-31.84 E15.72444
G1 X45.997 Y-31.498 E15.75466
G1 X46.272 Y-31.264 E15.77268
G1 X46.57 Y-30.989 E15.79291
G1 X46.987 Y-30.549 E15.82315
G1 X47.343 Y-30.058 E15.85341
G1 X47.632 Y-29.525 E15.88366
G1 X47.847 Y-28.958 E15.91391
G1 X47.987 Y-28.368 E15.94416
G1 X48.05 Y-27.656 E15.97982
G1 X48.09 Y-23.811 E16.17166
G1 X48.056 Y-23.205 E16.20194
G1 X47.943 Y-22.61 E16.23216
G1 X47.753 Y-22.034 E16.26242
G1 X47.488 Y-21.489 E16.29265
G1 X47.275 Y-21.149 E16.31267
G1 X11.595 Y30.521 E19.44538
G1 X11.219 Y30.996 E19.4756
G1 X10.783 Y31.417 E19.50584
G1 X10.295 Y31.778 E19.53612
G1 X9.765 Y32.071 E19.56634
G1 X9.2 Y32.292 E19.59661
G1 X8.611 Y32.437 E19.62687
G1 X8.008 Y32.503 E19.65713
G1 X7.552 Y32.5 E19.67988
G1 X3.654 Y32.281 E19.87466
G1 X-1.767 Y32.228 E20.14513
G1 X-7.594 Y32.502 E20.43616
G1 X-8.2 Y32.49 E20.4664
G1 X-8.8 Y32.399 E20.49668
G1 X-9.382 Y32.23 E20.52691
G1 X-9.937 Y31.986 E20.55716
G1 X-10.455 Y31.671 E20.5874
G1 X-10.927 Y31.29 E20.61767
G1 X-11.345 Y30.851 E20.64791
G1 X-11.595 Y30.521 E20.66856
G1 X-47.266 Y-21.12 E23.79983
G1 X-47.577 Y-21.64 E23.83006
G1 X-47.817 Y-22.197 E23.86032
G1 X-47.981 Y-22.781 E23.89058
G1 X-48.067 Y-23.381 E23.92082
G1 X-48.081 Y-23.765 E23.93999
G1 X-48.055 Y-27.617 E24.13217
G1 X-48.011 Y-28.222 E24.16244
G1 X-47.888 Y-28.815 E24.19265
G1 X-47.687 Y-29.388 E24.22294
G1 X-47.257 Y-30.175 E24.26769
G1 X-47.129 Y-30.363 E24.27903
G1 X-46.756 Y-30.84 E24.30924
G1 X-46.323 Y-31.265 E24.33951
G1 X-45.838 Y-31.628 E24.36974
G1 X-45.062 Y-32.034 E24.41343
G1 X-44.733 Y-32.168 E24.43115
G1 X-44.158 Y-32.359 E24.46138
G1 X-43.562 Y-32.473 E24.49165
G1 X-42.988 Y-32.508 E24.52035
G1 X-40.283 Y-32.502 E24.6553
G1 X-39.678 Y-32.461 E24.68555
G1 X-39.084 Y-32.34 E24.71579
G1 X-38.57 Y-32.167 E24.74285
G1 X-32.958 Y-29.9 E25.04482
G1 X-30.51 Y-29.036 E25.17433
G1 X-25.322 Y-27.45 E25.44499
G1 X-20.033 Y-26.153 E25.71667
G1 X-17.417 Y-25.627 E25.8498
G1 X-14.796 Y-25.181 E25.98244
G1 X-9.423 Y-24.494 E26.25268
G1 X-4.035 Y-24.113 E26.52216
G1 X1.366 Y-24.037 E26.79165
G0 F4500 X1.378 Y-23.637
G1 F2250 X6.785 Y-23.867 E27.06165
G1 X12.169 Y-24.402 E27.33158
G1 X17.544 Y-25.245 E27.60302
G1 X20.159 Y-25.77 E27.73608
G1 X22.805 Y-26.38 E27.87155
G1 X28.033 Y-27.82 E28.14209
G1 X33.222 Y-29.57 E28.4153
G1 X35.676 Y-30.516 E28.54651
G1 X38.674 Y-31.776 E28.70876
G1 X39.222 Y-31.963 E28.73764
G1 X39.791 Y-32.073 E28.76656
G1 X40.332 Y-32.104 E28.79359
G1 X43.183 Y-32.083 E28.93583
G1 X43.761 Y-32.039 E28.96475
G1 X44.327 Y-31.915 E28.99366
G1 X44.87 Y-31.715 E29.02253
G1 X45.381 Y-31.443 E29.05141
G1 X46 Y-30.97 E29.09028
G1 X46.298 Y-30.695 E29.11051
G1 X46.696 Y-30.273 E29.13945
G1 X47.032 Y-29.801 E29.16835
G1 X47.3 Y-29.288 E29.19723
G1 X47.494 Y-28.742 E29.22614
G1 X47.612 Y-28.175 E29.25503
G1 X47.65 Y-27.652 E29.28119
G1 X47.69 Y-23.807 E29.47303
G1 X47.656 Y-23.228 E29.50197
G1 X47.543 Y-22.66 E29.53086
G1 X47.352 Y-22.113 E29.55976
G1 X46.946 Y-21.376 E29.60174
G1 X11.266 Y30.294 E32.73446
G1 X10.905 Y30.746 E32.76332
G1 X10.485 Y31.145 E32.79222
G1 X10.014 Y31.482 E32.82111
G1 X9.501 Y31.752 E32.85003
G1 X8.956 Y31.948 E32.87893
G1 X8.389 Y32.067 E32.90783
G1 X7.574 Y32.1 E32.94853
G1 X3.68 Y31.881 E33.14311
G1 X-1.782 Y31.828 E33.41562
G1 X-7.613 Y32.102 E33.70685
G1 X-8.192 Y32.09 E33.73574
G1 X-8.764 Y31.997 E33.76465
G1 X-9.318 Y31.827 E33.79357
G1 X-9.843 Y31.582 E33.82247
G1 X-10.329 Y31.268 E33.85134
G1 X-10.768 Y30.889 E33.88027
G1 X-11.266 Y30.294 E33.91898
G1 X-46.937 Y-21.347 E37.05025
G1 X-47.232 Y-21.845 E37.07912
G1 X-47.457 Y-22.379 E37.10803
G1 X-47.605 Y-22.939 E37.13693
G1 X-47.681 Y-23.762 E37.17817
G1 X-47.655 Y-27.614 E37.37035
G1 X-47.611 Y-28.192 E37.39927
G1 X-47.488 Y-28.758 E37.42816
G1 X-47.288 Y-29.302 E37.45708
G1 X-46.927 Y-29.95 E37.49409
G1 X-46.799 Y-30.138 E37.50544
G1 X-46.44 Y-30.593 E37.53435
G1 X-46.023 Y-30.995 E37.56325
G1 X-45.554 Y-31.335 E37.59215
G1 X-44.911 Y-31.664 E37.62818
G1 X-44.582 Y-31.798 E37.64591
G1 X-44.032 Y-31.979 E37.67479
G1 X-43.462 Y-32.082 E37.70369
G1 X-42.989 Y-32.108 E37.72732
G1 X-40.284 Y-32.102 E37.86228
G1 X-39.706 Y-32.061 E37.89119
G1 X-39.139 Y-31.94 E37.92011
G1 X-38.72 Y-31.796 E37.94222
G1 X-33.108 Y-29.529 E38.24418
G1 X-30.619 Y-28.651 E38.37586
G1 X-25.425 Y-27.063 E38.64683
G1 X-20.139 Y-25.766 E38.91837
G1 X-17.464 Y-25.229 E39.05449
G1 X-14.864 Y-24.786 E39.18607
G1 X-9.467 Y-24.096 E39.45752
G1 X-4.051 Y-23.713 E39.7284
G1 X1.378 Y-23.637 E39.99928
G1 F4800 E33.99928
G1 F300 Z0.8
G0 F4500 X-6.2 Y23.218 Z0.8
;TYPE:WALL-INNER
G1 F300 Z0.3
G1 F4800 E39.99928
G1 F2250 X6.2 Y23.218 E40.61792
G1 X40.832 Y-26.918 E43.65795
G1 X42.5 Y-26.918 E43.74116
G1 X42.5 Y-24.054 E43.88405
G1 X7.339 Y26.845 E46.9704
G1 X4.013 Y26.396 E47.13784
G1 X0.00 Y26.218 E47.33824
G1 X-4.013 Y26.396 E47.53865
G1 X-7.339 Y26.845 E47.70609
G1 X-42.5 Y-24.054 E50.79244
G1 X-42.5 Y-26.918 E50.93532
G1 X-40.832 Y-26.918 E51.01854
G1 X-6.2 Y23.218 E54.05856
G0 F4500 X-5.99 Y22.818
G1 F2250 X5.99 Y22.818 E54.65625
G1 X40.622 Y-27.318 E57.69628
G1 X42.9 Y-27.318 E57.80993
G1 X42.9 Y-23.93 E57.97895
G1 X7.529 Y27.274 E61.08377
G1 X3.977 Y26.795 E61.26259
G1 X0.00 Y26.618 E61.4612
G1 X-3.977 Y26.795 E61.65981
G1 X-7.529 Y27.274 E61.83862
G1 X-42.9 Y-23.93 E64.94344
G1 X-42.9 Y-27.318 E65.11247
G1 X-40.622 Y-27.318 E65.22612
G1 X-5.99 Y22.818 E68.26615
G0 F4500 X-5.78 Y22.418
;TYPE:WALL-OUTER
G1 F2250 X5.78 Y22.418 E68.84288
G1 X40.413 Y-27.718 E71.88293
G1 X42.987 Y-27.718 E72.01135
G1 X43.086 Y-27.702 E72.01635
G1 X43.197 Y-27.638 E72.02275
G1 X43.27 Y-27.537 E72.02896
G1 X43.3 Y-27.396 E72.03616
G1 X43.3 Y-23.806 E72.21526
G1 X7.719 Y27.703 E75.33856
G1 X3.941 Y27.194 E75.52875
G1 X0.00 Y27.018 E75.72556
G1 X-3.941 Y27.194 E75.92237
G1 X-7.719 Y27.703 E76.11256
G1 X-43.3 Y-23.806 E79.23586
G1 X-43.3 Y-27.4 E79.41516
G1 X-43.283 Y-27.506 E79.42052
G1 X-43.22 Y-27.615 E79.4268
G1 X-43.119 Y-27.688 E79.43302
G1 X-42.981 Y-27.718 E79.44006
G1 X-40.413 Y-27.718 E79.56818
G1 X-5.78 Y22.418 E82.60823
G0 F4500 X-5.58 Y22.418
G0 X-5.58 Y22.918
G0 X-6.405 Y23.608
;TYPE:SKIN
G1 F2250 X6.405 Y23.608 E83.24733
G1 X41.037 Y-26.528 E86.28736
G1 X42.11 Y-26.528 E86.34089
G1 X42.11 Y-24.176 E86.45823
G1 X7.153 Y26.426 E89.5266
G1 X4.048 Y26.008 E89.68291
G1 X0.00 Y25.828 E89.88506
G1 X-4.048 Y26.008 E90.08722
G1 X-7.153 Y26.426 E90.24352
G1 X-42.11 Y-24.176 E93.31189
G1 X-42.11 Y-26.528 E93.42924
G1 X-41.037 Y-26.528 E93.48277
G1 X-6.405 Y23.608 E96.52279
G0 F4500 X-6.635 Y26.174
G1 F2250 X-8.155 Y24.653 E96.63007
G1 X-8.225 Y24.583
G0 F4500 X-7.182 Y22.799
G1 F2250 X-14.476 Y15.504 E97.14474
G1 X-14.546 Y15.434
G0 F4500 X-13.5 Y13.652
G1 F2250 X-20.796 Y6.356 E97.65951
G1 X-20.866 Y6.286
G0 F4500 X-19.819 Y4.504
G1 F2250 X-27.117 Y-2.793 E98.17439
G1 X-27.187 Y-2.863
G0 F4500 X-26.137 Y-4.641
G1 F2250 X-33.438 Y-11.942 E98.68952
G1 X-33.508 Y-12.012
G0 F4500 X-32.456 Y-13.788
G1 F2250 X-39.758 Y-21.09 E99.20471
G1 X-39.828 Y-21.16
G0 F4500 X-38.774 Y-22.935
G1 F2250 X-41.929 Y-26.09 E99.42731
G1 X-41.999 Y-26.16
G0 F4500 X-41.621 Y-26.347
G1 F2250 X-40.039 Y-24.765 E99.53893
G1 X-39.969 Y-24.695
G0 F4500 X-41.929 Y-24.958
G1 F2250 X-36.247 Y-19.277 E99.93979
G1 X-36.177 Y-19.207
G0 F4500 X-37.23 Y-17.431
G1 F2250 X-29.929 Y-10.13 E100.45492
G1 X-29.859 Y-10.06
G0 F4500 X-30.909 Y-8.282
G1 F2250 X-23.61 Y-.982 E100.96994
G1 X-23.54 Y-.912
G0 F4500 X-24.589 Y0.866
G1 F2250 X-17.291 Y8.164 E101.48485
G1 X-17.221 Y8.234
G0 F4500 X-18.268 Y10.015
G1 F2250 X-10.972 Y17.311 E101.99962
G1 X-10.902 Y17.381
G0 F4500 X-11.948 Y19.164
G1 F2250 X-5.139 Y25.972 E102.48
G1 X-5.069 Y26.042
G0 F4500 X-4.641 Y25.905
G1 F2250 X-13.212 Y17.334 E103.08473
G1 X-13.282 Y17.264
G0 F4500 X-12.236 Y15.482
G1 F2250 X-19.533 Y8.185 E103.59957
G1 X-19.603 Y8.115
G0 F4500 X-18.555 Y6.334
G1 F2250 X-25.853 Y-.963 E104.11445
G1 X-25.923 Y-1.033
G0 F4500 X-24.873 Y-2.812
G1 F2250 X-32.174 Y-10.112 E104.62954
G1 X-32.244 Y-10.182
G0 F4500 X-31.192 Y-11.959
G1 F2250 X-38.494 Y-19.26 E105.1447
G1 X-38.564 Y-19.33
G0 F4500 X-37.511 Y-21.106
G1 F2250 X-41.929 Y-25.524 E105.45641
G1 X-41.999 Y-25.594
G0 F4500 X-41.929 Y-24.393
G1 F2250 X-34.984 Y-17.447 E105.94646
G1 X-34.914 Y-17.377
G0 F4500 X-35.966 Y-15.601
G1 F2250 X-28.665 Y-8.3 E106.46158
G1 X-28.595 Y-8.23
G0 F4500 X-29.645 Y-6.452
G1 F2250 X-22.346 Y0.846 E106.97653
G1 X-22.276 Y0.916
G0 F4500 X-23.325 Y2.696
G1 F2250 X-16.027 Y9.993 E107.49141
G1 X-15.957 Y10.063
G0 F4500 X-17.004 Y11.845
G1 F2250 X-9.709 Y19.14 E108.00611
G1 X-9.639 Y19.21
G0 F4500 X-10.684 Y20.994
G1 F2250 X-5.638 Y26.039 E108.3621
G1 X-5.568 Y26.109
G0 F4500 X-6.136 Y26.107
G1 F2250 X-9.42 Y22.823 E108.5938
G1 X-9.49 Y22.753
G0 F4500 X-8.445 Y20.969
G1 F2250 X-15.74 Y13.674 E109.1085
G1 X-15.81 Y13.604
G0 F4500 X-14.764 Y11.822
G1 F2250 X-22.061 Y4.526 E109.62331
G1 X-22.131 Y4.456
G0 F4500 X-21.083 Y2.675
G1 F2250 X-28.381 Y-4.623 E110.13822
G1 X-28.451 Y-4.693
G0 F4500 X-27.401 Y-6.471
G1 F2250 X-34.701 Y-13.771 E110.65328
G1 X-34.771 Y-13.841
G0 F4500 X-33.72 Y-15.618
G1 F2250 X-41.022 Y-22.92 E111.16847
G1 X-41.092 Y-22.99
G0 F4500 X-6.194 Y23.787
G1 F2250 X-4.142 Y25.838 E111.31322
G1 X-4.072 Y25.908
G0 F4500 X-3.608 Y25.807
G1 F2250 X-5.628 Y23.787 E111.45574
G1 X-5.698 Y23.717
G0 F4500 X-5.062 Y23.787
G1 F2250 X-3.066 Y25.783 E111.59657
G1 X-2.996 Y25.853
G0 F4500 X-2.525 Y25.759
G1 F2250 X-4.497 Y23.787 E111.7357
G1 X-4.567 Y23.717
G0 F4500 X-3.931 Y23.787
G1 F2250 X-1.984 Y25.734 E111.87307
G1 X-1.914 Y25.804
G0 F4500 X-1.442 Y25.71
G1 F2250 X-3.365 Y23.787 E112.00875
G1 X-3.435 Y23.717
G0 F4500 X-2.8 Y23.787
G1 F2250 X-.9 Y25.686 E112.14277
G1 X-.83 Y25.756
G0 F4500 X-.359 Y25.662
G1 F2250 X-2.234 Y23.787 E112.27506
G1 X-2.304 Y23.717
G0 F4500 X-1.668 Y23.787
G1 F2250 X0.199 Y25.655 E112.40683
G1 X0.269 Y25.725
G0 F4500 X0.791 Y25.681
G1 F2250 X-1.103 Y23.787 E112.54046
G1 X-1.173 Y23.717
G0 F4500 X-.537 Y23.787
G1 F2250 X1.383 Y25.708 E112.67596
G1 X1.453 Y25.778
G0 F4500 X1.975 Y25.734
G1 F2250 X0.028 Y23.787 E112.81333
G1 X-0.042 Y23.717
G0 F4500 X0.593 Y23.787
G1 F2250 X2.567 Y25.76 E112.95257
G1 X2.637 Y25.83
G0 F4500 X3.16 Y25.787
G1 F2250 X1.159 Y23.787 E113.09372
G1 X1.089 Y23.717
G0 F4500 X1.725 Y23.787
G1 F2250 X3.751 Y25.813 E113.23666
G1 X3.821 Y25.883
G0 F4500 X4.373 Y25.869
G1 F2250 X2.291 Y23.787 E113.38356
G1 X2.221 Y23.717
G0 F4500 X2.856 Y23.787
G1 F2250 X5.026 Y25.957 E113.53667
G1 X5.096 Y26.027
G0 F4500 X5.68 Y26.045
G1 F2250 X3.422 Y23.787 E113.69598
G1 X3.352 Y23.717
G0 F4500 X3.988 Y23.787
G1 F2250 X6.334 Y26.133 E113.8615
G1 X6.404 Y26.203
G0 F4500 X6.988 Y26.221
G1 F2250 X4.553 Y23.787 E114.03327
G1 X4.483 Y23.717
G0 F4500 X5.119 Y23.787
G1 F2250 X7.269 Y25.937 E114.18496
G1 X7.339 Y26.007
G0 F4500 X7.5 Y25.602
G1 F2250 X5.685 Y23.787 E114.31302
G1 X5.615 Y23.717
G0 F4500 X6.25 Y23.787
G1 F2250 X7.732 Y25.268 E114.41755
G1 X7.802 Y25.338
G0 F4500 X7.963 Y24.933
G1 F2250 X6.629 Y23.599 E114.51167
G1 X6.559 Y23.529
G0 F4500 X6.859 Y23.264
G1 F2250 X8.193 Y24.598 E114.60579
G1 X8.263 Y24.668
G0 F4500 X8.425 Y24.264
G1 F2250 X7.09 Y22.93 E114.69995
G1 X7.02 Y22.86
G0 F4500 X7.322 Y22.595
G1 F2250 X8.656 Y23.929 E114.79407
G1 X8.726 Y23.999
G0 F4500 X8.887 Y23.595
G1 F2250 X7.553 Y22.261 E114.88819
G1 X7.483 Y22.191
G0 F4500 X7.784 Y21.926
G1 F2250 X9.118 Y23.26 E114.98231
G1 X9.188 Y23.33
G0 F4500 X9.35 Y22.926
G1 F2250 X8.015 Y21.592 E115.07647
G1 X7.945 Y21.522
G0 F4500 X8.246 Y21.257
G1 F2250 X9.581 Y22.592 E115.17066
G1 X9.651 Y22.662
G0 F4500 X9.811 Y22.256
G1 F2250 X8.477 Y20.922 E115.26478
G1 X8.407 Y20.852
G0 F4500 X8.708 Y20.588
G1 F2250 X10.043 Y21.922 E115.35893
G1 X10.113 Y21.992
G0 F4500 X10.274 Y21.587
G1 F2250 X8.939 Y20.253 E115.45309
G1 X8.869 Y20.183
G0 F4500 X9.171 Y19.919
G1 F2250 X10.505 Y21.253 E115.54721
G1 X10.575 Y21.323
G0 F4500 X10.736 Y20.919
G1 F2250 X9.402 Y19.584 E115.64137
G1 X9.332 Y19.514
G0 F4500 X9.633 Y19.25
G1 F2250 X10.967 Y20.584 E115.73549
G1 X11.037 Y20.654
G0 F4500 X11.199 Y20.25
G1 F2250 X9.864 Y18.915 E115.82968
G1 X9.794 Y18.845
G0 F4500 X10.095 Y18.58
G1 F2250 X11.43 Y19.915 E115.92387
G1 X11.5 Y19.985
G0 F4500 X11.66 Y19.58
G1 F2250 X10.326 Y18.246 E116.01799
G1 X10.256 Y18.176
G0 F4500 X10.557 Y17.911
G1 F2250 X11.892 Y19.246 E116.11218
G1 X11.962 Y19.316
G0 F4500 X12.123 Y18.911
G1 F2250 X10.789 Y17.577 E116.20631
G1 X10.719 Y17.507
G0 F4500 X11.02 Y17.242
G1 F2250 X12.354 Y18.577 E116.30046
G1 X12.424 Y18.647
G0 F4500 X12.585 Y18.242
