;FLAVOR:Marlin
;TIME:1002
;Filament used: 1.82079m
;Layer height: 0.2
;Generated with Cura_SteamEngine 3.1.0-atom-4
M104 S200
M109 S200
M82 ; absolute extrusion mode
G21 ;metric values
G90 ;absolute positioning
M82 ;set extruder to absolute mode
M107 ;start with the fan off
G28 ;move XYZ to min endstops
G1 Z15.0 F9000 ;move the platform down 15mm
G92 E0 ;zero the extruded length
G1 F9000
;Put printing message on LCD screen
M117 Printing...
;LAYER_COUNT:40
;LAYER:0
M107
G0 F4500 X0.52 Y4.346 Z0.3
;TYPE:SKIRT
G1 F3000 X-4.849 Y3.556 E0.27074
G1 X-10.185 Y3.077 E0.53803
G1 X-16.113 Y2.895 E0.83392
G1 X-32.403 Y2.854 E1.64663
G1 X-33.033 Y2.812 E1.67813
G1 X-33.654 Y2.692 E1.70969
G1 X-34.005 Y2.586 E1.72798
G1 X-36.564 Y1.713 E1.86287
G1 X-41.822 Y0.161 E2.13639
G1 X-43.618 Y-.298 E2.22887
G1 X-44.219 Y-.493 E2.26039
G1 X-44.791 Y-.762 E2.29193
G1 X-45.325 Y-1.102 E2.32351
G1 X-45.833 Y-1.527 E2.35655
G1 X-46.057 Y-1.741 E2.37201
G1 X-46.485 Y-2.205 E2.4035
G1 X-46.852 Y-2.72 E2.43505
G1 X-47.151 Y-3.278 E2.46664
G1 X-47.376 Y-3.868 E2.49814
G1 X-47.526 Y-4.482 E2.52967
G1 X-47.603 Y-5.341 E2.5727
G1 X-47.624 Y-12.542 E2.93196
G1 X-47.586 Y-13.173 E2.9635
G1 X-47.468 Y-13.795 E2.99508
G1 X-47.274 Y-14.396 E3.02659
G1 X-47.004 Y-14.968 E3.05815
G1 X-46.58 Y-15.615 E3.09674
G1 X-46.352 Y-15.91 E3.11534
G1 X-45.935 Y-16.384 E3.14684
G1 X-45.461 Y-16.803 E3.1784
G1 X-44.938 Y-17.158 E3.20994
G1 X-44.374 Y-17.444 E3.24149
G1 X-43.779 Y-17.657 E3.27301
G1 X-43.162 Y-17.793 E3.30454
G1 X-42.397 Y-17.852 E3.34282
G1 X42.297 Y-17.877 E7.56822
G1 X42.927 Y-17.837 E7.59971
G1 X43.548 Y-17.718 E7.63126
G1 X44.149 Y-17.522 E7.66279
G1 X44.72 Y-17.251 E7.69433
G1 X45.302 Y-16.874 E7.72892
G1 X45.604 Y-16.647 E7.74777
G1 X46.085 Y-16.236 E7.77934
G1 X46.509 Y-15.768 E7.81084
G1 X46.871 Y-15.249 E7.84241
G1 X47.165 Y-14.69 E7.87392
G1 X47.386 Y-14.097 E7.90549
G1 X47.53 Y-13.482 E7.93701
G1 X47.6 Y-12.657 E7.97831
G1 X47.635 Y12.488 E9.2328
G1 X47.596 Y13.119 E9.26435
G1 X47.478 Y13.74 E9.29588
G1 X47.226 Y14.477 E9.33474
G1 X47.106 Y14.755 E9.34985
G1 X46.819 Y15.318 E9.38137
G1 X46.463 Y15.841 E9.41294
G1 X46.045 Y16.314 E9.44443
G1 X45.57 Y16.731 E9.47596
G1 X45.189 Y16.998 E9.49918
G1 X45.061 Y17.079 E9.50673
G1 X44.506 Y17.383 E9.5383
G1 X43.918 Y17.614 E9.56982
G1 X43.305 Y17.769 E9.60137
G1 X42.384 Y17.854 E9.64751
G1 X36.597 Y17.851 E9.93623
G1 X35.967 Y17.811 E9.96772
G1 X35.346 Y17.691 E9.99927
G1 X34.745 Y17.494 E10.03083
G1 X34.062 Y17.159 E10.06878
G1 X30.702 Y15.18 E10.26333
G1 X25.926 Y12.659 E10.53276
G1 X20.999 Y10.405 E10.80307
G1 X18.627 Y9.438 E10.93087
G1 X13.495 Y7.598 E11.20286
G1 X8.34 Y6.074 E11.47105
G1 X3.042 Y4.825 E11.74261
G1 X0.52 Y4.346 E11.87069
G0 F4500 X0.583 Y3.951
G1 F3000 X-4.791 Y3.16 E12.14168
G1 X-10.17 Y2.677 E12.41112
G1 X-16.1 Y2.495 E12.70711
G1 X-32.402 Y2.454 E13.52042
G1 X-33.006 Y2.413 E13.55063
G1 X-33.875 Y2.208 E13.59517
G1 X-36.455 Y1.328 E13.73117
G1 X-41.694 Y-.218 E14.00369
G1 X-43.519 Y-.685 E14.09767
G1 X-44.095 Y-.874 E14.12792
G1 X-44.642 Y-1.137 E14.1582
G1 X-45.149 Y-1.469 E14.18843
G1 X-45.557 Y-1.816 E14.21515
G1 X-45.781 Y-2.03 E14.23061
G1 X-46.19 Y-2.477 E14.26084
G1 X-46.538 Y-2.974 E14.29111
G1 X-46.817 Y-3.512 E14.32134
G1 X-47.023 Y-4.082 E14.35158
G1 X-47.152 Y-4.674 E14.38181
G1 X-47.203 Y-5.343 E14.41528
G1 X-47.224 Y-12.544 E14.77454
G1 X-47.186 Y-13.149 E14.80478
G1 X-47.068 Y-13.743 E14.835
G1 X-46.874 Y-14.318 E14.86527
G1 X-46.605 Y-14.861 E14.89551
G1 X-46.264 Y-15.37 E14.92607
G1 X-46.036 Y-15.665 E14.94467
G1 X-45.634 Y-16.119 E14.97493
G1 X-45.176 Y-16.517 E15.0052
G1 X-44.67 Y-16.851 E15.03545
G1 X-44.124 Y-17.115 E15.0657
G1 X-43.549 Y-17.305 E15.09592
G1 X-42.953 Y-17.418 E15.12618
G1 X-42.397 Y-17.452 E15.15397
G1 X42.297 Y-17.477 E19.37937
G1 X42.902 Y-17.437 E19.40962
G1 X43.496 Y-17.318 E19.43984
G1 X44.07 Y-17.122 E19.47011
G1 X44.613 Y-16.852 E19.50036
G1 X45.062 Y-16.554 E19.52725
G1 X45.364 Y-16.327 E19.54609
G1 X45.823 Y-15.932 E19.57631
G1 X46.227 Y-15.479 E19.60659
G1 X46.568 Y-14.978 E19.63682
G1 X46.839 Y-14.436 E19.66706
G1 X47.037 Y-13.862 E19.69735
G1 X47.158 Y-13.268 E19.72759
G1 X47.2 Y-12.656 E19.7582
G1 X47.235 Y12.489 E21.01269
G1 X47.196 Y13.094 E21.04293
G1 X47.078 Y13.688 E21.07315
G1 X46.858 Y14.318 E21.10644
G1 X46.738 Y14.596 E21.12154
G1 X46.462 Y15.136 E21.1518
G1 X46.117 Y15.634 E21.18203
G1 X45.709 Y16.083 E21.21229
G1 X45.246 Y16.474 E21.24253
G1 X44.975 Y16.66 E21.25893
G1 X44.847 Y16.741 E21.26648
G1 X44.314 Y17.031 E21.29676
G1 X43.748 Y17.248 E21.327
G1 X43.158 Y17.389 E21.35726
G1 X42.385 Y17.454 E21.39596
G1 X36.598 Y17.451 E21.68468
G1 X35.993 Y17.411 E21.71493
G1 X35.398 Y17.291 E21.74521
G1 X34.825 Y17.095 E21.77542
G1 X34.265 Y16.814 E21.80668
G1 X30.896 Y14.83 E22.00174
G1 X26.108 Y12.302 E22.27187
G1 X21.167 Y10.042 E22.54294
G1 X18.752 Y9.057 E22.67306
G1 X13.617 Y7.217 E22.94519
G1 X8.441 Y5.686 E23.21449
G1 X3.139 Y4.437 E23.48624
G1 X0.583 Y3.951 E23.61605
G0 F4500 X0.642 Y3.555
G1 F3000 X-4.75 Y2.761 E23.88796
G1 X-10.14 Y2.277 E24.15795
G1 X-16.087 Y2.095 E24.45478
G1 X-32.401 Y2.054 E25.26869
G1 X-32.978 Y2.013 E25.29755
G1 X-33.746 Y1.829 E25.33695
G1 X-36.332 Y0.947 E25.47327
G1 X-41.592 Y-.605 E25.74687
G1 X-43.42 Y-1.073 E25.84101
G1 X-43.97 Y-1.255 E25.86992
G1 X-44.49 Y-1.511 E25.89883
G1 X-44.969 Y-1.836 E25.92771
G1 X-45.28 Y-2.105 E25.94823
G1 X-45.504 Y-2.319 E25.96368
G1 X-45.895 Y-2.747 E25.99261
G1 X-46.222 Y-3.225 E26.0215
G1 X-46.481 Y-3.743 E26.05039
G1 X-46.666 Y-4.292 E26.0793
G1 X-46.774 Y-4.861 E26.10819
G1 X-46.803 Y-5.344 E26.13233
G1 X-46.824 Y-12.545 E26.49159
G1 X-46.786 Y-13.123 E26.52049
G1 X-46.668 Y-13.69 E26.54938
G1 X-46.474 Y-14.236 E26.57829
G1 X-46.206 Y-14.75 E26.60721
G1 X-45.947 Y-15.125 E26.62995
G1 X-45.719 Y-15.42 E26.64855
G1 X-45.334 Y-15.853 E26.67746
G1 X-44.893 Y-16.229 E26.70637
G1 X-44.405 Y-16.54 E26.73524
G1 X-43.878 Y-16.782 E26.76417
G1 X-43.323 Y-16.948 E26.79307
G1 X-42.751 Y-17.037 E26.82195
G1 X-42.397 Y-17.052 E26.83963
G1 X42.297 Y-17.077 E31.06503
G1 X42.875 Y-17.037 E31.09394
G1 X43.442 Y-16.918 E31.12284
G1 X43.987 Y-16.722 E31.15174
G1 X44.5 Y-16.453 E31.18064
G1 X44.822 Y-16.234 E31.20006
G1 X45.124 Y-16.007 E31.21891
G1 X45.562 Y-15.628 E31.24781
G1 X45.943 Y-15.192 E31.2767
G1 X46.261 Y-14.708 E31.30559
G1 X46.51 Y-14.185 E31.33449
G1 X46.684 Y-13.632 E31.36341
G1 X46.78 Y-13.061 E31.3923
G1 X46.8 Y-12.656 E31.41253
G1 X46.835 Y12.489 E32.66702
G1 X46.796 Y13.067 E32.69592
G1 X46.678 Y13.634 E32.72481
G1 X46.491 Y14.159 E32.75262
G1 X46.371 Y14.437 E32.76772
G1 X46.105 Y14.952 E32.79664
G1 X45.771 Y15.426 E32.82557
G1 X45.375 Y15.848 E32.85444
G1 X44.761 Y16.322 E32.89314
G1 X44.633 Y16.403 E32.9007
G1 X44.123 Y16.678 E32.92961
G1 X43.58 Y16.881 E32.95853
G1 X43.015 Y17.007 E32.98741
G1 X42.385 Y17.054 E33.01893
G1 X36.598 Y17.051 E33.30764
G1 X36.02 Y17.011 E33.33655
G1 X35.453 Y16.891 E33.36546
G1 X34.908 Y16.695 E33.39436
G1 X34.468 Y16.47 E33.41901
G1 X31.074 Y14.471 E33.61553
G1 X26.282 Y11.942 E33.88585
G1 X21.324 Y9.673 E34.15788
G1 X18.918 Y8.692 E34.28751
G1 X13.744 Y6.838 E34.56171
G1 X8.536 Y5.298 E34.83266
G1 X3.219 Y4.045 E35.1052
G1 X0.642 Y3.555 E35.23607
G1 F4800 E29.23607
G1 F300 Z0.8
G0 F4500 X40.351 Y-6.101 Z0.8
;TYPE:WALL-INNER
G1 F300 Z0.3
G1 F4800 E35.23607
G1 F3000 X28.155 Y-6.102 E35.84453
G1 X28.137 Y-3.576 E35.97055
G1 X28.143 Y-3.307 E35.98398
G1 X28.144 Y-3.306 E35.98405
G1 X28.146 Y-3.104 E35.99413
G1 X27.944 Y-3.104 E36.00062
G1 X27.943 Y-3.104 E36.00067
G1 X-31.441 Y-3.105 E38.96335
G1 X-31.442 Y-3.105 E38.9634
G1 X-31.642 Y-3.105 E38.97338
G1 X-31.642 Y-3.305 E38.97984
G1 X-31.641 Y-3.306 E38.97991
G1 X-31.638 Y-3.591 E38.99413
G1 X-31.659 Y-6.097 E39.11916
G1 X-37.505 Y-6.11 E39.41082
G1 X-41.446 Y-6.105 E39.60744
G1 X-41.646 Y-6.105 E39.61742
G1 X-41.646 Y-6.305 E39.62388
G1 X-41.645 Y-11.896 E39.90281
G1 X41.446 Y-11.895 E44.04824
G1 X41.646 Y-11.895 E44.05822
G1 X41.646 Y-11.695 E44.06468
G1 X41.645 Y11.696 E45.23166
G1 X41.645 Y11.896 E45.24164
G1 X41.445 Y11.896 E45.2481
G1 X37.354 Y11.895 E45.4522
G1 X37.355 Y6.307 E45.73099
G1 X37.355 Y6.107 E45.74096
G1 X37.555 Y6.107 E45.74742
G1 X38.798 Y6.112 E45.80944
G1 X39.104 Y6.081 E45.82478
G1 X39.451 Y5.961 E45.8431
G1 X39.76 Y5.768 E45.86128
G1 X40.018 Y5.51 E45.87948
G1 X40.213 Y5.199 E45.89779
G1 X40.33 Y4.856 E45.91587
G1 X40.363 Y4.555 E45.93098
G1 X40.351 Y-6.101 E46.46261
G0 F4500 X39.951 Y-5.701
G1 F3000 X28.552 Y-5.702 E47.03131
G1 X28.537 Y-3.579 E47.13723
G1 X28.546 Y-3.176 E47.15734
G1 X28.545 Y-2.704 E47.18089
G1 X-31.844 Y-2.705 E50.19371
G1 X-31.845 Y-2.705 E50.19376
G1 X-32.045 Y-2.705 E50.20374
G1 X-32.045 Y-2.905 E50.2102
G1 X-32.044 Y-2.906 E50.21027
G1 X-32.038 Y-3.591 E50.24444
G1 X-32.056 Y-5.698 E50.34957
G1 X-37.505 Y-5.71 E50.62142
G1 X-41.846 Y-5.705 E50.83799
G1 X-42.046 Y-5.705 E50.84797
G1 X-42.046 Y-5.905 E50.85443
G1 X-42.045 Y-12.296 E51.17328
G1 X41.846 Y-12.295 E55.35862
G1 X42.046 Y-12.295 E55.3686
G1 X42.046 Y-12.095 E55.37506
G1 X42.045 Y12.096 E56.58195
G1 X42.045 Y12.296 E56.59193
G1 X41.845 Y12.296 E56.59839
G1 X36.954 Y12.295 E56.8424
G1 X36.955 Y5.905 E57.1612
G1 X36.955 Y5.705 E57.17118
G1 X37.155 Y5.705 E57.17764
G1 X38.779 Y5.712 E57.25866
G1 X39.017 Y5.688 E57.2706
G1 X39.277 Y5.598 E57.28432
G1 X39.509 Y5.453 E57.29797
G1 X39.703 Y5.259 E57.31166
G1 X39.849 Y5.026 E57.32538
G1 X39.937 Y4.768 E57.33898
G1 X39.963 Y4.533 E57.35077
G1 X39.951 Y-5.701 E57.86135
G0 F4500 X39.551 Y-5.301
;TYPE:WALL-OUTER
G1 F3000 X28.949 Y-5.302 E58.39029
G1 X28.937 Y-3.582 E58.4761
G1 X28.946 Y-3.175 E58.49641
G1 X28.945 Y-2.52 E58.52909
G1 X28.925 Y-2.43 E58.53369
G1 X28.883 Y-2.367 E58.53746
G1 X28.82 Y-2.325 E58.54124
G1 X28.728 Y-2.304 E58.54595
G1 X-32.183 Y-2.305 E61.58481
G1 X-32.23 Y-2.305 E61.58716
G1 X-32.32 Y-2.325 E61.59176
G1 X-32.383 Y-2.367 E61.59553
G1 X-32.425 Y-2.43 E61.59931
G1 X-32.446 Y-2.521 E61.60397
G1 X-32.446 Y-2.568 E61.60632
G1 X-32.438 Y-3.591 E61.65736
G1 X-32.453 Y-5.299 E61.74257
G1 X-37.505 Y-5.31 E61.99462
G1 X-42.183 Y-5.305 E62.228
G1 X-42.23 Y-5.305 E62.23035
G1 X-42.32 Y-5.325 E62.23495
G1 X-42.383 Y-5.367 E62.23873
G1 X-42.425 Y-5.43 E62.2425
G1 X-42.446 Y-5.522 E62.24721
G1 X-42.446 Y-5.569 E62.24956
G1 X-42.445 Y-12.48 E62.59435
G1 X-42.425 Y-12.57 E62.59895
G1 X-42.383 Y-12.633 E62.60272
G1 X-42.32 Y-12.675 E62.6065
G1 X-42.228 Y-12.696 E62.61121
G1 X42.183 Y-12.695 E66.82249
G1 X42.23 Y-12.695 E66.82484
G1 X42.32 Y-12.675 E66.82944
G1 X42.383 Y-12.633 E66.83321
G1 X42.425 Y-12.57 E66.83699
G1 X42.446 Y-12.478 E66.8417
G1 X42.446 Y-12.431 E66.84404
G1 X42.445 Y12.433 E68.08451
G1 X42.445 Y12.48 E68.08686
G1 X42.425 Y12.57 E68.09146
G1 X42.383 Y12.633 E68.09524
G1 X42.32 Y12.675 E68.09901
G1 X42.228 Y12.696 E68.10372
G1 X42.181 Y12.696 E68.10607
G1 X36.77 Y12.695 E68.37602
G1 X36.68 Y12.675 E68.38062
G1 X36.617 Y12.633 E68.3844
G1 X36.575 Y12.57 E68.38818
G1 X36.554 Y12.478 E68.39288
G1 X36.555 Y5.567 E68.73768
G1 X36.555 Y5.52 E68.74002
G1 X36.575 Y5.43 E68.74462
G1 X36.617 Y5.367 E68.7484
G1 X36.68 Y5.325 E68.75218
G1 X36.772 Y5.304 E68.75688
G1 X36.819 Y5.304 E68.75923
G1 X38.76 Y5.312 E68.85607
G1 X38.93 Y5.295 E68.86459
G1 X39.103 Y5.235 E68.87372
G1 X39.258 Y5.138 E68.88285
G1 X39.388 Y5.008 E68.89202
G1 X39.485 Y4.853 E68.90114
G1 X39.544 Y4.68 E68.91026
G1 X39.563 Y4.511 E68.91875
G1 X39.551 Y-5.301 E69.40827
G0 F4500 X39.351 Y-5.301
G0 X39.352 Y-5.801
G0 X40.741 Y-6.491
;TYPE:SKIN
G1 F3000 X27.767 Y-6.492 E70.05554
G1 X27.748 Y-3.494 E70.20512
G1 X-31.249 Y-3.495 E73.14849
G1 X-31.273 Y-6.487 E73.29777
G1 X-37.505 Y-6.5 E73.60868
G1 X-41.256 Y-6.495 E73.79582
G1 X-41.255 Y-11.506 E74.04582
G1 X41.256 Y-11.505 E78.16231
G1 X41.255 Y11.506 E79.31033
G1 X37.744 Y11.505 E79.4855
G1 X37.745 Y6.499 E79.73525
G1 X38.817 Y6.502 E79.78873
G1 X39.188 Y6.465 E79.80733
G1 X39.62 Y6.316 E79.83013
G1 X40.004 Y6.076 E79.85272
G1 X40.324 Y5.754 E79.87537
G1 X40.568 Y5.368 E79.89815
G1 X40.713 Y4.941 E79.92065
G1 X40.753 Y4.576 E79.93897
G1 X40.741 Y-6.491 E80.49111
G0 F4500 X41.075 Y-10.967
G1 F3000 X40.718 Y-11.325 E80.51633
G0 F4500 X40.152 Y-11.325
G1 F3000 X41.075 Y-10.401 E80.58149
G1 X41.145 Y-10.331
G0 F4500 X41.075 Y-9.835
G1 F3000 X39.586 Y-11.325 E80.68658
G1 X39.516 Y-11.395
G0 F4500 X39.02 Y-11.325
G1 F3000 X41.075 Y-9.27 E80.83157
G1 X41.145 Y-9.2
G0 F4500 X41.075 Y-8.704
G1 F3000 X38.455 Y-11.325 E81.01646
G1 X38.385 Y-11.395
G0 F4500 X37.889 Y-11.325
G1 F3000 X41.075 Y-8.138 E81.24129
G1 X41.145 Y-8.068
G0 F4500 X41.075 Y-7.573
G1 F3000 X37.323 Y-11.325 E81.50601
G1 X37.253 Y-11.395
G0 F4500 X36.758 Y-11.325
G1 F3000 X41.075 Y-7.007 E81.81063
G1 X41.145 Y-6.937
G0 F4500 X40.846 Y-6.671
G1 F3000 X36.192 Y-11.325 E82.139
G1 X36.122 Y-11.395
G0 F4500 X35.626 Y-11.325
G1 F3000 X40.28 Y-6.671 E82.46736
G1 X40.35 Y-6.601
G0 F4500 X39.714 Y-6.671
G1 F3000 X35.061 Y-11.325 E82.79569
G1 X34.991 Y-11.395
G0 F4500 X34.495 Y-11.325
G1 F3000 X39.148 Y-6.671 E83.12402
G1 X39.218 Y-6.601
G0 F4500 X38.583 Y-6.671
G1 F3000 X33.929 Y-11.325 E83.45239
G1 X33.859 Y-11.395
G0 F4500 X33.364 Y-11.325
G1 F3000 X38.017 Y-6.671 E83.78072
G1 X38.087 Y-6.601
G0 F4500 X37.451 Y-6.671
G1 F3000 X32.798 Y-11.325 E84.10905
G1 X32.728 Y-11.395
G0 F4500 X32.232 Y-11.325
G1 F3000 X36.886 Y-6.671 E84.43741
G1 X36.956 Y-6.601
G0 F4500 X36.32 Y-6.671
G1 F3000 X31.667 Y-11.325 E84.76574
G1 X31.597 Y-11.395
G0 F4500 X31.101 Y-11.325
G1 F3000 X35.754 Y-6.671 E85.09407
G1 X35.824 Y-6.601
G0 F4500 X35.189 Y-6.671
G1 F3000 X30.535 Y-11.325 E85.42244
G1 X30.465 Y-11.395
G0 F4500 X29.97 Y-11.325
G1 F3000 X34.623 Y-6.671 E85.75076
G1 X34.693 Y-6.601
G0 F4500 X34.057 Y-6.672
G1 F3000 X29.404 Y-11.325 E86.07906
G1 X29.334 Y-11.395
G0 F4500 X28.838 Y-11.325
G1 F3000 X33.491 Y-6.672 E86.40735
G1 X33.561 Y-6.602
G0 F4500 X32.925 Y-6.672
G1 F3000 X28.272 Y-11.325 E86.73565
G1 X28.202 Y-11.395
G0 F4500 X27.707 Y-11.325
G1 F3000 X32.36 Y-6.672 E87.06394
G1 X32.43 Y-6.602
G0 F4500 X31.794 Y-6.672
G1 F3000 X27.141 Y-11.325 E87.39224
G1 X27.071 Y-11.395
G0 F4500 X26.575 Y-11.325
G1 F3000 X31.228 Y-6.672 E87.72053
G1 X31.298 Y-6.602
G0 F4500 X30.662 Y-6.672
G1 F3000 X26.01 Y-11.325 E88.04879
G1 X25.94 Y-11.395
G0 F4500 X25.444 Y-11.325
G1 F3000 X30.097 Y-6.672 E88.37708
G1 X30.167 Y-6.602
G0 F4500 X29.531 Y-6.672
G1 F3000 X24.878 Y-11.325 E88.70538
G1 X24.808 Y-11.395
G0 F4500 X24.313 Y-11.325
G1 F3000 X28.965 Y-6.672 E89.03364
G1 X29.035 Y-6.602
G0 F4500 X28.4 Y-6.672
G1 F3000 X23.747 Y-11.325 E89.36193
G1 X23.677 Y-11.395
G0 F4500 X23.181 Y-11.325
G1 F3000 X27.834 Y-6.672 E89.69023
G1 X27.904 Y-6.602
G0 F4500 X27.585 Y-6.355
G1 F3000 X22.616 Y-11.325 E90.04085
G1 X22.546 Y-11.395
G0 F4500 X22.05 Y-11.325
G1 F3000 X27.582 Y-5.793 E90.43116
G1 X27.652 Y-5.723
G0 F4500 X27.578 Y-5.231
G1 F3000 X21.484 Y-11.325 E90.86113
G1 X21.414 Y-11.395
G0 F4500 X20.919 Y-11.325
G1 F3000 X27.575 Y-4.669 E91.33074
G1 X27.645 Y-4.599
G0 F4500 X27.571 Y-4.106
G1 F3000 X20.353 Y-11.325 E91.84005
G1 X20.283 Y-11.395
G0 F4500 X19.787 Y-11.325
G1 F3000 X27.437 Y-3.674 E92.37983
G1 X27.507 Y-3.604
G0 F4500 X26.872 Y-3.674
G1 F3000 X19.221 Y-11.325 E92.91965
G1 X19.151 Y-11.395
G0 F4500 X18.656 Y-11.325
G1 F3000 X26.306 Y-3.674 E93.45944
G1 X26.376 Y-3.604
G0 F4500 X25.74 Y-3.674
G1 F3000 X18.09 Y-11.325 E93.99922
G1 X18.02 Y-11.395
G0 F4500 X17.524 Y-11.325
G1 F3000 X25.175 Y-3.674 E94.53904
G1 X25.245 Y-3.604
G0 F4500 X24.609 Y-3.674
G1 F3000 X16.959 Y-11.325 E95.07882
G1 X16.889 Y-11.395
G0 F4500 X16.393 Y-11.325
G1 F3000 X24.043 Y-3.674 E95.61861
G1 X24.113 Y-3.604
G0 F4500 X23.478 Y-3.674
G1 F3000 X15.827 Y-11.325 E96.15843
G1 X15.757 Y-11.395
G0 F4500 X15.262 Y-11.325
G1 F3000 X22.912 Y-3.674 E96.69821
G1 X22.982 Y-3.604
G0 F4500 X22.346 Y-3.674
G1 F3000 X14.696 Y-11.325 E97.238
G1 X14.626 Y-11.395
G0 F4500 X14.13 Y-11.325
G1 F3000 X21.781 Y-3.674 E97.77782
G1 X21.851 Y-3.604
G0 F4500 X21.215 Y-3.674
G1 F3000 X13.565 Y-11.325 E98.3176
G1 X13.495 Y-11.395
G0 F4500 X12.999 Y-11.325
G1 F3000 X20.649 Y-3.674 E98.85738
G1 X20.719 Y-3.604
