;FLAVOR:Marlin
;TIME:2239
;Filament used: 2.50774m
;Layer height: 0.2
;Generated with Cura_SteamEngine 3.1.0-atom-4
M104 S200
M109 S200
M82 ; absolute extrusion mode
G21 ;metric values
G90 ;absolute positioning
M82 ;set extruder to absolute mode
M107 ;start with the fan off
G28 ;move XYZ to min endstops
G1 Z15.0 F9000 ;move the platform down 15mm
G92 E0 ;zero the extruded length
G1 F9000
;Put printing message on LCD screen
M117 Printing...
;LAYER_COUNT:145
;LAYER:0
M107
G0 F4500 X36 Y10.114 Z0.3
;TYPE:SKIRT
G1 F2250 X36.154 Y15.555 E0.27156
G1 X36.609 Y20.908 E0.53959
G1 X37.368 Y26.233 E0.80794
G1 X38.429 Y31.523 E1.07711
G1 X39.058 Y34.088 E1.20887
G1 X39.763 Y36.655 E1.34168
G1 X41.422 Y41.812 E1.61195
G1 X43.356 Y46.832 E1.88034
G1 X45.565 Y51.721 E2.148
G1 X47.913 Y56.246 E2.40234
G1 X48.168 Y56.824 E2.43385
G1 X48.348 Y57.43 E2.46539
G1 X48.45 Y58.054 E2.49694
G1 X48.475 Y58.527 E2.52057
G1 X48.491 Y62.134 E2.70052
G1 X48.454 Y62.765 E2.73206
G1 X48.282 Y63.585 E2.77386
G1 X48.157 Y64.004 E2.79567
G1 X47.939 Y64.598 E2.82724
G1 X47.647 Y65.158 E2.85875
G1 X47.287 Y65.678 E2.8903
G1 X46.864 Y66.148 E2.92185
G1 X46.385 Y66.561 E2.9534
G1 X45.972 Y66.842 E2.97832
G1 X45.746 Y66.98 E2.99154
G1 X45.186 Y67.275 E3.02311
G1 X44.594 Y67.497 E3.05466
G1 X43.979 Y67.642 E3.08618
G1 X43.184 Y67.713 E3.126
G1 X40.349 Y67.738 E3.26745
G1 X39.718 Y67.703 E3.29897
G1 X39.096 Y67.59 E3.33051
G1 X38.429 Y67.373 E3.36551
G1 X32.848 Y65.114 E3.66589
G1 X30.446 Y64.269 E3.79292
G1 X25.249 Y62.676 E4.06411
G1 X19.99 Y61.385 E4.33427
G1 X17.371 Y60.856 E4.46757
G1 X14.79 Y60.415 E4.59821
G1 X9.422 Y59.726 E4.86821
G1 X4.063 Y59.345 E5.13625
G1 X-1.294 Y59.266 E5.40354
G1 X-6.68 Y59.493 E5.67249
G1 X-12.028 Y60.022 E5.9406
G1 X-17.362 Y60.857 E6.20996
G1 X-19.972 Y61.38 E6.34276
G1 X-22.544 Y61.97 E6.47441
G1 X-27.759 Y63.404 E6.74425
G1 X-32.911 Y65.139 E7.01546
G1 X-35.331 Y66.071 E7.14484
G1 X-38.362 Y67.345 E7.30888
G1 X-38.959 Y67.553 E7.34042
G1 X-39.578 Y67.684 E7.37198
G1 X-40.352 Y67.736 E7.41068
G1 X-43.219 Y67.706 E7.55373
G1 X-43.85 Y67.659 E7.58529
G1 X-44.469 Y67.533 E7.61681
G1 X-45.068 Y67.331 E7.64835
G1 X-45.665 Y67.037 E7.68155
G1 X-45.828 Y66.943 E7.69094
G1 X-46.354 Y66.594 E7.72243
G1 X-46.833 Y66.18 E7.75401
G1 X-47.255 Y65.71 E7.78553
G1 X-47.619 Y65.182 E7.81752
G1 X-47.752 Y64.96 E7.83043
G1 X-48.042 Y64.398 E7.86199
G1 X-48.259 Y63.804 E7.89354
G1 X-48.399 Y63.188 E7.92505
G1 X-48.463 Y62.425 E7.96325
G1 X-48.49 Y58.613 E8.15344
G1 X-48.454 Y57.982 E8.18497
G1 X-48.34 Y57.361 E8.21647
G1 X-48.147 Y56.758 E8.24806
G1 X-47.945 Y56.309 E8.27262
G1 X-44.994 Y50.515 E8.59702
G1 X-42.862 Y45.617 E8.86353
G1 X-40.988 Y40.542 E9.13343
G1 X-39.413 Y35.402 E9.40163
G1 X-38.12 Y30.133 E9.6723
G1 X-37.613 Y27.597 E9.80133
G1 X-36.771 Y22.231 E10.07232
G1 X-36.24 Y16.899 E10.33965
G1 X-36.01 Y11.506 E10.60895
G1 X-36 Y-10.114 E11.68757
G1 X-36.154 Y-15.555 E11.95914
G1 X-36.609 Y-20.908 E12.22716
G1 X-37.368 Y-26.233 E12.49551
G1 X-38.429 Y-31.523 E12.76469
G1 X-39.058 Y-34.088 E12.89645
G1 X-39.763 Y-36.655 E13.02926
G1 X-41.422 Y-41.812 E13.29953
G1 X-43.356 Y-46.832 E13.56792
G1 X-45.565 Y-51.721 E13.83557
G1 X-47.917 Y-56.253 E14.09031
G1 X-48.172 Y-56.831 E14.12183
G1 X-48.352 Y-57.437 E14.15337
G1 X-48.454 Y-58.061 E14.18491
G1 X-48.479 Y-58.539 E14.20879
G1 X-48.491 Y-62.143 E14.3886
G1 X-48.453 Y-62.774 E14.42014
G1 X-48.275 Y-63.614 E14.46297
G1 X-48.148 Y-64.032 E14.48477
G1 X-47.926 Y-64.624 E14.51631
G1 X-47.632 Y-65.183 E14.54782
G1 X-47.269 Y-65.701 E14.57938
G1 X-46.844 Y-66.168 E14.61088
G1 X-46.363 Y-66.579 E14.64245
G1 X-45.945 Y-66.86 E14.66758
G1 X-45.721 Y-66.995 E14.68062
G1 X-45.16 Y-67.287 E14.71218
G1 X-44.567 Y-67.505 E14.7437
G1 X-43.951 Y-67.647 E14.77524
G1 X-43.188 Y-67.713 E14.81344
G1 X-40.356 Y-67.74 E14.95474
G1 X-39.724 Y-67.706 E14.98632
G1 X-39.103 Y-67.593 E15.01781
G1 X-38.432 Y-67.375 E15.05301
G1 X-32.848 Y-65.114 E15.35356
G1 X-30.446 Y-64.269 E15.4806
G1 X-25.249 Y-62.676 E15.75179
G1 X-19.99 Y-61.385 E16.02195
G1 X-17.371 Y-60.856 E16.15525
G1 X-14.79 Y-60.415 E16.28588
G1 X-9.422 Y-59.726 E16.55589
G1 X-4.063 Y-59.345 E16.82393
G1 X1.294 Y-59.266 E17.09122
G1 X6.68 Y-59.493 E17.36016
G1 X12.028 Y-60.022 E17.62828
G1 X17.362 Y-60.857 E17.89763
G1 X19.972 Y-61.38 E18.03044
G1 X22.544 Y-61.97 E18.16209
G1 X27.759 Y-63.404 E18.43192
G1 X32.911 Y-65.139 E18.70314
G1 X35.331 Y-66.071 E18.83252
G1 X38.362 Y-67.345 E18.99655
G1 X38.959 Y-67.553 E19.02809
G1 X39.578 Y-67.684 E19.05966
G1 X40.352 Y-67.736 E19.09836
G1 X43.219 Y-67.706 E19.2414
G1 X43.85 Y-67.659 E19.27297
G1 X44.469 Y-67.533 E19.30448
G1 X45.068 Y-67.331 E19.33602
G1 X45.636 Y-67.054 E19.36755
G1 X45.976 Y-66.843 E19.38751
G1 X46.166 Y-66.714 E19.39897
G1 X46.665 Y-66.326 E19.43051
G1 X47.112 Y-65.879 E19.46204
G1 X47.498 Y-65.379 E19.49356
G1 X47.94 Y-64.576 E19.53929
G1 X48.063 Y-64.294 E19.55464
G1 X48.279 Y-63.7 E19.58617
G1 X48.418 Y-63.083 E19.61772
G1 X48.48 Y-62.308 E19.65651
G1 X48.49 Y-58.592 E19.84191
G1 X48.452 Y-57.961 E19.87344
G1 X48.334 Y-57.34 E19.90498
G1 X48.139 Y-56.739 E19.9365
G1 X47.915 Y-56.25 E19.96334
G1 X46.18 Y-52.953 E20.14921
G1 X43.865 Y-48.019 E20.42112
G1 X42.879 Y-45.664 E20.54849
G1 X40.988 Y-40.542 E20.82089
G1 X39.413 Y-35.402 E21.08909
G1 X38.12 Y-30.133 E21.35976
G1 X37.613 Y-27.597 E21.48879
G1 X36.771 Y-22.231 E21.75977
G1 X36.24 Y-16.899 E22.0271
G1 X36.01 Y-11.506 E22.29641
G1 X36 Y10.114 E23.37503
G0 F4500 X35.6 Y10.125
G1 F2250 X35.754 Y15.582 E23.64739
G1 X36.21 Y20.945 E23.91592
G1 X36.973 Y26.3 E24.18578
G1 X38.036 Y31.6 E24.45546
G1 X38.67 Y34.184 E24.5882
G1 X39.385 Y36.785 E24.72278
G1 X41.044 Y41.941 E24.993
G1 X42.985 Y46.984 E25.26259
G1 X45.207 Y51.899 E25.5317
G1 X47.558 Y56.43 E25.78637
G1 X47.801 Y56.985 E25.81659
G1 X47.969 Y57.568 E25.84686
G1 X48.059 Y58.168 E25.87713
G1 X48.075 Y58.529 E25.89516
G1 X48.091 Y62.136 E26.07512
G1 X48.054 Y62.741 E26.10535
G1 X47.899 Y63.471 E26.14259
G1 X47.774 Y63.89 E26.1644
G1 X47.563 Y64.458 E26.19463
G1 X47.279 Y64.994 E26.22489
G1 X46.927 Y65.488 E26.25516
G1 X46.513 Y65.93 E26.28537
G1 X46.044 Y66.315 E26.31564
G1 X45.763 Y66.501 E26.33245
G1 X45.537 Y66.639 E26.34567
G1 X45 Y66.92 E26.3759
G1 X44.431 Y67.128 E26.40613
G1 X43.839 Y67.26 E26.43639
G1 X43.181 Y67.313 E26.46932
G1 X40.346 Y67.338 E26.61077
G1 X39.74 Y67.303 E26.64105
G1 X39.145 Y67.189 E26.67127
G1 X38.579 Y67.002 E26.70101
G1 X32.998 Y64.743 E27.0014
G1 X30.555 Y63.883 E27.13061
G1 X25.356 Y62.29 E27.40189
G1 X20.091 Y60.997 E27.67237
G1 X17.452 Y60.465 E27.80668
G1 X14.861 Y60.021 E27.93783
G1 X9.447 Y59.327 E28.21014
G1 X4.097 Y58.946 E28.47773
G1 X-1.322 Y58.867 E28.74811
G1 X-6.701 Y59.093 E29.01671
G1 X-12.077 Y59.625 E29.28623
G1 X-17.452 Y60.466 E29.55765
G1 X-20.034 Y60.983 E29.68903
G1 X-22.648 Y61.583 E29.82283
G1 X-27.888 Y63.025 E30.09397
G1 X-33.014 Y64.751 E30.36382
G1 X-35.475 Y65.698 E30.49537
G1 X-38.517 Y66.977 E30.66001
G1 X-39.09 Y67.174 E30.69024
G1 X-39.685 Y67.295 E30.72053
G1 X-40.348 Y67.336 E30.75367
G1 X-43.215 Y67.306 E30.89671
G1 X-43.82 Y67.259 E30.92699
G1 X-44.413 Y67.134 E30.95722
G1 X-44.984 Y66.932 E30.98744
G1 X-45.465 Y66.691 E31.01428
G1 X-45.628 Y66.597 E31.02367
G1 X-46.132 Y66.26 E31.05392
G1 X-46.588 Y65.86 E31.08418
G1 X-46.986 Y65.403 E31.11441
G1 X-47.276 Y64.976 E31.14017
G1 X-47.409 Y64.754 E31.15308
G1 X-47.686 Y64.215 E31.18331
G1 X-47.889 Y63.643 E31.21359
G1 X-48.015 Y63.05 E31.24384
G1 X-48.063 Y62.423 E31.27521
G1 X-48.09 Y58.611 E31.4654
G1 X-48.054 Y58.005 E31.49568
G1 X-47.939 Y57.41 E31.52592
G1 X-47.747 Y56.835 E31.55616
G1 X-47.589 Y56.49 E31.57509
G1 X-44.632 Y50.685 E31.90011
G1 X-42.481 Y45.743 E32.16901
G1 X-40.611 Y40.677 E32.43843
G1 X-39.026 Y35.505 E32.7083
G1 X-37.733 Y30.237 E32.97893
G1 X-37.214 Y27.645 E33.11081
G1 X-36.375 Y22.297 E33.38088
G1 X-35.842 Y16.939 E33.64952
G1 X-35.61 Y11.5 E33.92111
G1 X-35.6 Y-10.125 E34.99999
G1 X-35.754 Y-15.582 E35.27235
G1 X-36.21 Y-20.945 E35.54088
G1 X-36.973 Y-26.3 E35.81074
G1 X-38.036 Y-31.6 E36.08042
G1 X-38.67 Y-34.184 E36.21316
G1 X-39.385 Y-36.785 E36.34774
G1 X-41.044 Y-41.941 E36.61796
G1 X-42.985 Y-46.984 E36.88755
G1 X-45.207 Y-51.899 E37.15665
G1 X-47.562 Y-56.437 E37.41173
G1 X-47.805 Y-56.992 E37.44195
G1 X-47.973 Y-57.575 E37.47222
G1 X-48.063 Y-58.174 E37.50244
G1 X-48.079 Y-58.541 E37.52077
G1 X-48.091 Y-62.145 E37.70057
G1 X-48.053 Y-62.75 E37.73082
G1 X-47.892 Y-63.497 E37.76894
G1 X-47.765 Y-63.915 E37.79074
G1 X-47.551 Y-64.482 E37.82097
G1 X-47.264 Y-65.017 E37.85126
G1 X-46.91 Y-65.508 E37.88146
G1 X-46.494 Y-65.949 E37.91171
G1 X-46.023 Y-66.332 E37.94199
G1 X-45.738 Y-66.518 E37.95897
G1 X-45.514 Y-66.653 E37.97202
G1 X-44.976 Y-66.931 E38.00223
G1 X-44.405 Y-67.136 E38.0325
G1 X-43.812 Y-67.264 E38.06277
G1 X-43.184 Y-67.313 E38.09419
G1 X-40.352 Y-67.34 E38.23549
G1 X-39.747 Y-67.306 E38.26572
G1 X-39.151 Y-67.192 E38.29599
G1 X-38.582 Y-67.004 E38.32589
G1 X-32.998 Y-64.743 E38.62645
G1 X-30.555 Y-63.883 E38.75566
G1 X-25.356 Y-62.29 E39.02694
G1 X-20.091 Y-60.997 E39.29742
G1 X-17.452 Y-60.465 E39.43173
G1 X-14.861 Y-60.021 E39.56288
G1 X-9.447 Y-59.327 E39.83519
G1 X-4.097 Y-58.946 E40.10278
G1 X1.322 Y-58.867 E40.37317
G1 X6.701 Y-59.093 E40.64176
G1 X12.077 Y-59.625 E40.91128
G1 X17.452 Y-60.466 E41.1827
G1 X20.034 Y-60.983 E41.31408
G1 X22.648 Y-61.583 E41.44788
G1 X27.888 Y-63.025 E41.71902
G1 X33.014 Y-64.751 E41.98887
G1 X35.475 Y-65.698 E42.12043
G1 X38.517 Y-66.977 E42.28506
G1 X39.09 Y-67.174 E42.31529
G1 X39.685 Y-67.295 E42.34558
G1 X40.348 Y-67.336 E42.37872
G1 X43.215 Y-67.306 E42.52177
G1 X43.82 Y-67.259 E42.55204
G1 X44.413 Y-67.134 E42.58228
G1 X44.984 Y-66.932 E42.61249
G1 X45.751 Y-66.512 E42.65612
G1 X45.941 Y-66.383 E42.66758
G1 X46.419 Y-66.01 E42.69783
G1 X46.844 Y-65.577 E42.7281
G1 X47.208 Y-65.093 E42.75831
G1 X47.573 Y-64.416 E42.79668
G1 X47.696 Y-64.134 E42.81203
G1 X47.902 Y-63.564 E42.84227
G1 X48.03 Y-62.971 E42.87253
G1 X48.08 Y-62.307 E42.90576
G1 X48.09 Y-58.591 E43.09115
G1 X48.052 Y-57.986 E43.12139
G1 X47.934 Y-57.392 E43.15161
G1 X47.739 Y-56.817 E43.1819
G1 X47.561 Y-56.437 E43.20283
G1 X45.816 Y-53.122 E43.38973
G1 X43.505 Y-48.195 E43.66124
G1 X42.501 Y-45.797 E43.79094
G1 X40.611 Y-40.677 E44.06322
G1 X39.026 Y-35.505 E44.3331
G1 X37.733 Y-30.237 E44.60372
G1 X37.214 Y-27.645 E44.7356
G1 X36.375 Y-22.297 E45.00568
G1 X35.842 Y-16.939 E45.27431
G1 X35.61 Y-11.5 E45.54591
G1 X35.6 Y10.125 E46.62479
G0 F4500 X35.2 Y10.135
G1 F2250 X35.354 Y15.592 E46.89715
G1 X35.814 Y20.999 E47.16788
G1 X36.578 Y26.363 E47.43819
G1 X37.649 Y31.704 E47.70996
G1 X38.281 Y34.28 E47.84229
G1 X39.002 Y36.901 E47.97791
G1 X40.668 Y42.082 E48.24942
G1 X42.612 Y47.128 E48.5192
G1 X44.844 Y52.069 E48.7897
G1 X47.203 Y56.614 E49.04517
G1 X47.434 Y57.146 E49.07411
G1 X47.589 Y57.704 E49.103
G1 X47.675 Y58.53 E49.14443
G1 X47.691 Y62.137 E49.32439
G1 X47.654 Y62.715 E49.35328
G1 X47.516 Y63.357 E49.38604
G1 X47.391 Y63.776 E49.40786
G1 X47.187 Y64.318 E49.43675
G1 X46.911 Y64.827 E49.46564
G1 X46.567 Y65.294 E49.49457
G1 X46.163 Y65.708 E49.52343
G1 X45.555 Y66.16 E49.56123
G1 X45.329 Y66.298 E49.57444
G1 X44.815 Y66.565 E49.60334
G1 X44.269 Y66.758 E49.63223
G1 X43.701 Y66.875 E49.66116
G1 X43.177 Y66.913 E49.68737
G1 X40.342 Y66.938 E49.82882
G1 X39.764 Y66.903 E49.85771
G1 X39.196 Y66.789 E49.88661
G1 X38.729 Y66.631 E49.91121
G1 X33.154 Y64.375 E50.21125
G1 X30.671 Y63.501 E50.34258
G1 X25.468 Y61.906 E50.61408
G1 X20.161 Y60.603 E50.88671
G1 X17.533 Y60.073 E51.02047
G1 X14.91 Y59.624 E51.15323
G1 X9.491 Y58.929 E51.4258
G1 X4.113 Y58.546 E51.69479
G1 X-1.333 Y58.467 E51.96652
G1 X-6.721 Y58.693 E52.23556
G1 X-12.126 Y59.228 E52.50654
G1 X-17.523 Y60.072 E52.77907
G1 X-20.097 Y60.588 E52.91004
G1 X-22.746 Y61.196 E53.04564
G1 X-28.017 Y62.646 E53.31838
G1 X-33.145 Y64.373 E53.58833
G1 X-35.637 Y65.332 E53.72155
G1 X-38.672 Y66.608 E53.8858
G1 X-39.221 Y66.795 E53.91474
G1 X-39.789 Y66.905 E53.9436
G1 X-40.344 Y66.936 E53.97133
G1 X-43.211 Y66.906 E54.11438
G1 X-43.788 Y66.86 E54.14325
G1 X-44.354 Y66.735 E54.17217
G1 X-44.897 Y66.533 E54.20108
G1 X-45.265 Y66.344 E54.22172
G1 X-45.428 Y66.25 E54.2311
G1 X-45.909 Y65.927 E54.26001
G1 X-46.341 Y65.541 E54.28891
G1 X-46.715 Y65.099 E54.3178
G1 X-46.933 Y64.77 E54.33749
G1 X-47.066 Y64.548 E54.3504
G1 X-47.329 Y64.032 E54.37929
G1 X-47.518 Y63.485 E54.40817
G1 X-47.63 Y62.916 E54.4371
G1 X-47.663 Y62.42 E54.4619
G1 X-47.69 Y58.608 E54.65209
G1 X-47.654 Y58.03 E54.68098
G1 X-47.539 Y57.462 E54.70989
G1 X-47.232 Y56.672 E54.75218
G1 X-44.272 Y50.861 E55.07753
G1 X-42.115 Y45.904 E55.34724
G1 X-40.231 Y40.801 E55.61862
G1 X-38.642 Y35.617 E55.88913
G1 X-37.336 Y30.297 E56.16243
G1 X-36.824 Y27.735 E56.29277
G1 X-35.978 Y22.346 E56.56493
G1 X-35.442 Y16.959 E56.83501
G1 X-35.21 Y11.517 E57.10676
G1 X-35.2 Y-10.135 E58.18698
G1 X-35.354 Y-15.592 E58.45934
G1 X-35.814 Y-20.999 E58.73007
G1 X-36.578 Y-26.363 E59.00038
G1 X-37.649 Y-31.704 E59.27215
G1 X-38.281 Y-34.28 E59.40448
G1 X-39.002 Y-36.901 E59.5401
G1 X-40.668 Y-42.082 E59.81162
G1 X-42.612 Y-47.128 E60.0814
G1 X-44.844 Y-52.069 E60.35189
G1 X-47.207 Y-56.621 E60.60777
G1 X-47.438 Y-57.152 E60.63666
G1 X-47.593 Y-57.711 E60.6656
G1 X-47.679 Y-58.542 E60.70728
G1 X-47.691 Y-62.146 E60.88708
G1 X-47.653 Y-62.724 E60.91598
G1 X-47.51 Y-63.381 E60.94953
G1 X-47.383 Y-63.799 E60.97132
G1 X-47.176 Y-64.34 E61.00022
G1 X-46.898 Y-64.848 E61.02911
G1 X-46.552 Y-65.313 E61.05803
G1 X-46.145 Y-65.725 E61.08692
G1 X-45.532 Y-66.175 E61.12486
G1 X-45.308 Y-66.31 E61.13791
G1 X-44.792 Y-66.574 E61.16683
G1 X-44.245 Y-66.765 E61.19573
G1 X-43.677 Y-66.878 E61.22462
G1 X-43.18 Y-66.913 E61.24948
G1 X-40.348 Y-66.94 E61.39078
G1 X-39.77 Y-66.905 E61.41967
G1 X-39.202 Y-66.792 E61.44856
G1 X-38.732 Y-66.633 E61.47331
G1 X-33.154 Y-64.374 E61.77356
G1 X-30.671 Y-63.501 E61.90487
G1 X-25.468 Y-61.906 E62.17637
G1 X-20.163 Y-60.604 E62.44889
G1 X-17.533 Y-60.073 E62.58275
G1 X-14.91 Y-59.624 E62.71552
G1 X-9.491 Y-58.929 E62.98808
G1 X-4.113 Y-58.546 E63.25707
G1 X1.333 Y-58.467 E63.5288
G1 X6.721 Y-58.693 E63.79785
G1 X12.126 Y-59.228 E64.06882
G1 X17.523 Y-60.072 E64.34135
G1 X20.097 Y-60.588 E64.47233
G1 X22.746 Y-61.196 E64.60792
G1 X28.017 Y-62.646 E64.88066
G1 X33.145 Y-64.373 E65.15062
G1 X35.637 Y-65.332 E65.28383
G1 X38.672 Y-66.608 E65.44809
G1 X39.221 Y-66.795 E65.47702
G1 X39.789 Y-66.905 E65.50589
G1 X40.344 Y-66.936 E65.53362
G1 X43.211 Y-66.906 E65.67666
G1 X43.788 Y-66.86 E65.70554
G1 X44.354 Y-66.735 E65.73446
G1 X44.897 Y-66.533 E65.76336
G1 X45.526 Y-66.181 E65.79932
G1 X45.716 Y-66.052 E65.81078
G1 X46.172 Y-65.694 E65.8397
G1 X46.574 Y-65.277 E65.8686
G1 X46.915 Y-64.809 E65.89749
G1 X47.207 Y-64.256 E65.92869
G1 X47.33 Y-63.974 E65.94404
G1 X47.524 Y-63.428 E65.97295
G1 X47.642 Y-62.861 E66.00184
G1 X47.68 Y-62.306 E66.02959
G1 X47.69 Y-58.59 E66.21499
G1 X47.652 Y-58.012 E66.24389
G1 X47.534 Y-57.445 E66.27278
G1 X47.34 Y-56.899 E66.30169
G1 X47.207 Y-56.623 E66.31697
G1 X45.458 Y-53.299 E66.50436
G1 X43.14 Y-48.359 E66.7766
G1 X42.131 Y-45.949 E66.90695
G1 X40.231 Y-40.801 E67.18072
G1 X38.642 Y-35.617 E67.45123
G1 X37.336 Y-30.297 E67.72453
G1 X36.824 Y-27.735 E67.85487
G1 X35.978 Y-22.346 E68.12702
G1 X35.442 Y-16.959 E68.39711
G1 X35.21 Y-11.517 E68.66886
G1 X35.2 Y10.135 E69.74908
G1 F4800 E63.74908
G1 F300 Z0.8
G0 F4500 X20.869 Y-27.572 Z0.8
;TYPE:WALL-INNER
G1 F300 Z0.3
G1 F4800 E69.74908
G1 F2250 X21.429 Y-26.5 E69.80942
G1 X30 Y-26.5 E70.23703
G1 X30 Y26.5 E72.88121
G1 X21.429 Y26.5 E73.30882
G1 X20.869 Y27.572 E73.36916
G1 X42.5 Y58.886 E75.26792
G1 X42.5 Y61.75 E75.4108
G1 X40.832 Y61.75 E75.49402
G1 X16.483 Y26.5 E77.63141
G1 X-16.483 Y26.5 E79.2761
G1 X-40.832 Y61.75 E81.41349
G1 X-42.5 Y61.75 E81.49671
G1 X-42.5 Y58.886 E81.63959
G1 X-20.869 Y27.572 E83.53835
G1 X-21.429 Y26.5 E83.59869
G1 X-30 Y26.5 E84.0263
G1 X-30 Y-26.5 E86.67048
G1 X-21.429 Y-26.5 E87.09809
G1 X-20.869 Y-27.572 E87.15843
G1 X-42.5 Y-58.886 E89.05719
G1 X-42.5 Y-61.75 E89.20007
